N10(GCode created using the HeeksCNC Mach3 post processor)
N20 (Operation_1.tap)
N30 G21
N40 (G-code generated with BlenderCAM and NC library)
N50 G17 G90
N60 G43H1
N70 T1M06
N80 (Tool: D = 3.0 mm  type END flutes 2)
N90 S12000 M03
N100 G00 Z10.0
N110 
N120 G00 X0 Y0 Z10
N130 G00 X-1001.5 Y1000
N140 G01 Z-10 F500
N150 G01 X-1001.5 Y1000.036 F1000
N160 G01 X-1001.499 Y1000.073
N170 G01 X-1001.496 Y1000.11
N180 G01 X-1001.493 Y1000.147
N190 G01 X-1001.489 Y1000.183
N200 G01 X-1001.484 Y1000.22
N210 G01 X-1001.478 Y1000.256
N220 G01 X-1001.472 Y1000.292
N230 G01 X-1001.464 Y1000.328
N240 G01 X-1001.456 Y1000.364
N250 G01 X-1001.446 Y1000.4
N260 G01 X-1001.436 Y1000.435
N270 G01 X-1001.425 Y1000.47
N280 G01 X-1001.413 Y1000.505
N290 G01 X-1001.4 Y1000.54
N300 G01 X-1001.386 Y1000.574
N310 G01 X-1001.372 Y1000.608
N320 G01 X-1001.356 Y1000.641
N330 G01 X-1001.34 Y1000.674
N340 G01 X-1001.323 Y1000.707
N350 G01 X-1001.305 Y1000.739
N360 G01 X-1001.287 Y1000.771
N370 G01 X-1001.268 Y1000.802
N380 G01 X-1001.248 Y1000.833
N390 G01 X-1001.227 Y1000.864
N400 G01 X-1001.205 Y1000.894
N410 G01 X-1001.183 Y1000.923
N420 G01 X-1001.16 Y1000.952
N430 G01 X-1001.136 Y1000.98
N440 G01 X-1001.112 Y1001.008
N450 G01 X-1001.087 Y1001.034
N460 G01 X-1001.061 Y1001.061
N470 G01 X-1001.034 Y1001.087
N480 G01 X-1001.008 Y1001.112
N490 G01 X-1000.98 Y1001.136
N500 G01 X-1000.952 Y1001.16
N510 G01 X-1000.923 Y1001.183
N520 G01 X-1000.894 Y1001.205
N530 G01 X-1000.864 Y1001.227
N540 G01 X-1000.833 Y1001.248
N550 G01 X-1000.802 Y1001.268
N560 G01 X-1000.771 Y1001.287
N570 G01 X-1000.739 Y1001.305
N580 G01 X-1000.707 Y1001.323
N590 G01 X-1000.674 Y1001.34
N600 G01 X-1000.641 Y1001.356
N610 G01 X-1000.608 Y1001.372
N620 G01 X-1000.574 Y1001.386
N630 G01 X-1000.54 Y1001.4
N640 G01 X-1000.505 Y1001.413
N650 G01 X-1000.47 Y1001.425
N660 G01 X-1000.435 Y1001.436
N670 G01 X-1000.4 Y1001.446
N680 G01 X-1000.364 Y1001.456
N690 G01 X-1000.328 Y1001.464
N700 G01 X-1000.292 Y1001.472
N710 G01 X-1000.256 Y1001.478
N720 G01 X-1000.22 Y1001.484
N730 G01 X-1000.183 Y1001.489
N740 G01 X-1000.146 Y1001.493
N750 G01 X-1000.11 Y1001.496
N760 G01 X-1000.073 Y1001.499
N770 G01 X-1000.036 Y1001.5
N780 G01 X-1000 Y1001.5
N790 G01 X1000
N800 G01 X1000.036 Y1001.5
N810 G01 X1000.073 Y1001.499
N820 G01 X1000.11 Y1001.496
N830 G01 X1000.147 Y1001.493
N840 G01 X1000.183 Y1001.489
N850 G01 X1000.22 Y1001.484
N860 G01 X1000.256 Y1001.478
N870 G01 X1000.292 Y1001.472
N880 G01 X1000.328 Y1001.464
N890 G01 X1000.364 Y1001.456
N900 G01 X1000.4 Y1001.446
N910 G01 X1000.435 Y1001.436
N920 G01 X1000.47 Y1001.425
N930 G01 X1000.505 Y1001.413
N940 G01 X1000.54 Y1001.4
N950 G01 X1000.574 Y1001.386
N960 G01 X1000.608 Y1001.372
N970 G01 X1000.641 Y1001.356
N980 G01 X1000.674 Y1001.34
N990 G01 X1000.707 Y1001.323
N1000 G01 X1000.739 Y1001.305
N1010 G01 X1000.771 Y1001.287
N1020 G01 X1000.802 Y1001.268
N1030 G01 X1000.833 Y1001.248
N1040 G01 X1000.864 Y1001.227
N1050 G01 X1000.894 Y1001.205
N1060 G01 X1000.923 Y1001.183
N1070 G01 X1000.952 Y1001.16
N1080 G01 X1000.98 Y1001.136
N1090 G01 X1001.008 Y1001.112
N1100 G01 X1001.034 Y1001.087
N1110 G01 X1001.061 Y1001.061
N1120 G01 X1001.087 Y1001.034
N1130 G01 X1001.112 Y1001.008
N1140 G01 X1001.136 Y1000.98
N1150 G01 X1001.16 Y1000.952
N1160 G01 X1001.183 Y1000.923
N1170 G01 X1001.205 Y1000.894
N1180 G01 X1001.227 Y1000.864
N1190 G01 X1001.248 Y1000.833
N1200 G01 X1001.268 Y1000.802
N1210 G01 X1001.287 Y1000.771
N1220 G01 X1001.305 Y1000.739
N1230 G01 X1001.323 Y1000.707
N1240 G01 X1001.34 Y1000.674
N1250 G01 X1001.356 Y1000.641
N1260 G01 X1001.372 Y1000.608
N1270 G01 X1001.386 Y1000.574
N1280 G01 X1001.4 Y1000.54
N1290 G01 X1001.413 Y1000.505
N1300 G01 X1001.425 Y1000.47
N1310 G01 X1001.436 Y1000.435
N1320 G01 X1001.446 Y1000.4
N1330 G01 X1001.456 Y1000.364
N1340 G01 X1001.464 Y1000.328
N1350 G01 X1001.472 Y1000.292
N1360 G01 X1001.478 Y1000.256
N1370 G01 X1001.484 Y1000.22
N1380 G01 X1001.489 Y1000.183
N1390 G01 X1001.493 Y1000.146
N1400 G01 X1001.496 Y1000.11
N1410 G01 X1001.499 Y1000.073
N1420 G01 X1001.5 Y1000.036
N1430 G01 X1001.5 Y1000
N1440 G01 Y-1000
N1450 G01 X1001.5 Y-1000.036
N1460 G01 X1001.499 Y-1000.073
N1470 G01 X1001.496 Y-1000.11
N1480 G01 X1001.493 Y-1000.147
N1490 G01 X1001.489 Y-1000.183
N1500 G01 X1001.484 Y-1000.22
N1510 G01 X1001.478 Y-1000.256
N1520 G01 X1001.472 Y-1000.292
N1530 G01 X1001.464 Y-1000.328
N1540 G01 X1001.456 Y-1000.364
N1550 G01 X1001.446 Y-1000.4
N1560 G01 X1001.436 Y-1000.435
N1570 G01 X1001.425 Y-1000.47
N1580 G01 X1001.413 Y-1000.505
N1590 G01 X1001.4 Y-1000.54
N1600 G01 X1001.386 Y-1000.574
N1610 G01 X1001.372 Y-1000.608
N1620 G01 X1001.356 Y-1000.641
N1630 G01 X1001.34 Y-1000.674
N1640 G01 X1001.323 Y-1000.707
N1650 G01 X1001.305 Y-1000.739
N1660 G01 X1001.287 Y-1000.771
N1670 G01 X1001.268 Y-1000.802
N1680 G01 X1001.248 Y-1000.833
N1690 G01 X1001.227 Y-1000.864
N1700 G01 X1001.205 Y-1000.894
N1710 G01 X1001.183 Y-1000.923
N1720 G01 X1001.16 Y-1000.952
N1730 G01 X1001.136 Y-1000.98
N1740 G01 X1001.112 Y-1001.008
N1750 G01 X1001.087 Y-1001.034
N1760 G01 X1001.061 Y-1001.061
N1770 G01 X1001.034 Y-1001.087
N1780 G01 X1001.008 Y-1001.112
N1790 G01 X1000.98 Y-1001.136
N1800 G01 X1000.952 Y-1001.16
N1810 G01 X1000.923 Y-1001.183
N1820 G01 X1000.894 Y-1001.205
N1830 G01 X1000.864 Y-1001.227
N1840 G01 X1000.833 Y-1001.248
N1850 G01 X1000.802 Y-1001.268
N1860 G01 X1000.771 Y-1001.287
N1870 G01 X1000.739 Y-1001.305
N1880 G01 X1000.707 Y-1001.323
N1890 G01 X1000.674 Y-1001.34
N1900 G01 X1000.641 Y-1001.356
N1910 G01 X1000.608 Y-1001.372
N1920 G01 X1000.574 Y-1001.386
N1930 G01 X1000.54 Y-1001.4
N1940 G01 X1000.505 Y-1001.413
N1950 G01 X1000.47 Y-1001.425
N1960 G01 X1000.435 Y-1001.436
N1970 G01 X1000.4 Y-1001.446
N1980 G01 X1000.364 Y-1001.456
N1990 G01 X1000.328 Y-1001.464
N2000 G01 X1000.292 Y-1001.472
N2010 G01 X1000.256 Y-1001.478
N2020 G01 X1000.22 Y-1001.484
N2030 G01 X1000.183 Y-1001.489
N2040 G01 X1000.146 Y-1001.493
N2050 G01 X1000.11 Y-1001.496
N2060 G01 X1000.073 Y-1001.499
N2070 G01 X1000.036 Y-1001.5
N2080 G01 X1000 Y-1001.5
N2090 G01 X-1000
N2100 G01 X-1000.036 Y-1001.5
N2110 G01 X-1000.073 Y-1001.499
N2120 G01 X-1000.11 Y-1001.496
N2130 G01 X-1000.147 Y-1001.493
N2140 G01 X-1000.183 Y-1001.489
N2150 G01 X-1000.22 Y-1001.484
N2160 G01 X-1000.256 Y-1001.478
N2170 G01 X-1000.292 Y-1001.472
N2180 G01 X-1000.328 Y-1001.464
N2190 G01 X-1000.364 Y-1001.456
N2200 G01 X-1000.4 Y-1001.446
N2210 G01 X-1000.435 Y-1001.436
N2220 G01 X-1000.47 Y-1001.425
N2230 G01 X-1000.505 Y-1001.413
N2240 G01 X-1000.54 Y-1001.4
N2250 G01 X-1000.574 Y-1001.386
N2260 G01 X-1000.608 Y-1001.372
N2270 G01 X-1000.641 Y-1001.356
N2280 G01 X-1000.674 Y-1001.34
N2290 G01 X-1000.707 Y-1001.323
N2300 G01 X-1000.739 Y-1001.305
N2310 G01 X-1000.771 Y-1001.287
N2320 G01 X-1000.802 Y-1001.268
N2330 G01 X-1000.833 Y-1001.248
N2340 G01 X-1000.864 Y-1001.227
N2350 G01 X-1000.894 Y-1001.205
N2360 G01 X-1000.923 Y-1001.183
N2370 G01 X-1000.952 Y-1001.16
N2380 G01 X-1000.98 Y-1001.136
N2390 G01 X-1001.008 Y-1001.112
N2400 G01 X-1001.034 Y-1001.087
N2410 G01 X-1001.061 Y-1001.061
N2420 G01 X-1001.087 Y-1001.034
N2430 G01 X-1001.112 Y-1001.008
N2440 G01 X-1001.136 Y-1000.98
N2450 G01 X-1001.16 Y-1000.952
N2460 G01 X-1001.183 Y-1000.923
N2470 G01 X-1001.205 Y-1000.894
N2480 G01 X-1001.227 Y-1000.864
N2490 G01 X-1001.248 Y-1000.833
N2500 G01 X-1001.268 Y-1000.802
N2510 G01 X-1001.287 Y-1000.771
N2520 G01 X-1001.305 Y-1000.739
N2530 G01 X-1001.323 Y-1000.707
N2540 G01 X-1001.34 Y-1000.674
N2550 G01 X-1001.356 Y-1000.641
N2560 G01 X-1001.372 Y-1000.608
N2570 G01 X-1001.386 Y-1000.574
N2580 G01 X-1001.4 Y-1000.54
N2590 G01 X-1001.413 Y-1000.505
N2600 G01 X-1001.425 Y-1000.47
N2610 G01 X-1001.436 Y-1000.435
N2620 G01 X-1001.446 Y-1000.4
N2630 G01 X-1001.456 Y-1000.364
N2640 G01 X-1001.464 Y-1000.328
N2650 G01 X-1001.472 Y-1000.292
N2660 G01 X-1001.478 Y-1000.256
N2670 G01 X-1001.484 Y-1000.22
N2680 G01 X-1001.489 Y-1000.183
N2690 G01 X-1001.493 Y-1000.146
N2700 G01 X-1001.496 Y-1000.11
N2710 G01 X-1001.499 Y-1000.073
N2720 G01 X-1001.5 Y-1000.036
N2730 G01 X-1001.5 Y-1000
N2740 G01 Y1000
N2750 G01 Z-20 F500
N2760 G01 X-1001.5 Y1000.036 F1000
N2770 G01 X-1001.499 Y1000.073
N2780 G01 X-1001.496 Y1000.11
N2790 G01 X-1001.493 Y1000.147
N2800 G01 X-1001.489 Y1000.183
N2810 G01 X-1001.484 Y1000.22
N2820 G01 X-1001.478 Y1000.256
N2830 G01 X-1001.472 Y1000.292
N2840 G01 X-1001.464 Y1000.328
N2850 G01 X-1001.456 Y1000.364
N2860 G01 X-1001.446 Y1000.4
N2870 G01 X-1001.436 Y1000.435
N2880 G01 X-1001.425 Y1000.47
N2890 G01 X-1001.413 Y1000.505
N2900 G01 X-1001.4 Y1000.54
N2910 G01 X-1001.386 Y1000.574
N2920 G01 X-1001.372 Y1000.608
N2930 G01 X-1001.356 Y1000.641
N2940 G01 X-1001.34 Y1000.674
N2950 G01 X-1001.323 Y1000.707
N2960 G01 X-1001.305 Y1000.739
N2970 G01 X-1001.287 Y1000.771
N2980 G01 X-1001.268 Y1000.802
N2990 G01 X-1001.248 Y1000.833
N3000 G01 X-1001.227 Y1000.864
N3010 G01 X-1001.205 Y1000.894
N3020 G01 X-1001.183 Y1000.923
N3030 G01 X-1001.16 Y1000.952
N3040 G01 X-1001.136 Y1000.98
N3050 G01 X-1001.112 Y1001.008
N3060 G01 X-1001.087 Y1001.034
N3070 G01 X-1001.061 Y1001.061
N3080 G01 X-1001.034 Y1001.087
N3090 G01 X-1001.008 Y1001.112
N3100 G01 X-1000.98 Y1001.136
N3110 G01 X-1000.952 Y1001.16
N3120 G01 X-1000.923 Y1001.183
N3130 G01 X-1000.894 Y1001.205
N3140 G01 X-1000.864 Y1001.227
N3150 G01 X-1000.833 Y1001.248
N3160 G01 X-1000.802 Y1001.268
N3170 G01 X-1000.771 Y1001.287
N3180 G01 X-1000.739 Y1001.305
N3190 G01 X-1000.707 Y1001.323
N3200 G01 X-1000.674 Y1001.34
N3210 G01 X-1000.641 Y1001.356
N3220 G01 X-1000.608 Y1001.372
N3230 G01 X-1000.574 Y1001.386
N3240 G01 X-1000.54 Y1001.4
N3250 G01 X-1000.505 Y1001.413
N3260 G01 X-1000.47 Y1001.425
N3270 G01 X-1000.435 Y1001.436
N3280 G01 X-1000.4 Y1001.446
N3290 G01 X-1000.364 Y1001.456
N3300 G01 X-1000.328 Y1001.464
N3310 G01 X-1000.292 Y1001.472
N3320 G01 X-1000.256 Y1001.478
N3330 G01 X-1000.22 Y1001.484
N3340 G01 X-1000.183 Y1001.489
N3350 G01 X-1000.146 Y1001.493
N3360 G01 X-1000.11 Y1001.496
N3370 G01 X-1000.073 Y1001.499
N3380 G01 X-1000.036 Y1001.5
N3390 G01 X-1000 Y1001.5
N3400 G01 X1000
N3410 G01 X1000.036 Y1001.5
N3420 G01 X1000.073 Y1001.499
N3430 G01 X1000.11 Y1001.496
N3440 G01 X1000.147 Y1001.493
N3450 G01 X1000.183 Y1001.489
N3460 G01 X1000.22 Y1001.484
N3470 G01 X1000.256 Y1001.478
N3480 G01 X1000.292 Y1001.472
N3490 G01 X1000.328 Y1001.464
N3500 G01 X1000.364 Y1001.456
N3510 G01 X1000.4 Y1001.446
N3520 G01 X1000.435 Y1001.436
N3530 G01 X1000.47 Y1001.425
N3540 G01 X1000.505 Y1001.413
N3550 G01 X1000.54 Y1001.4
N3560 G01 X1000.574 Y1001.386
N3570 G01 X1000.608 Y1001.372
N3580 G01 X1000.641 Y1001.356
N3590 G01 X1000.674 Y1001.34
N3600 G01 X1000.707 Y1001.323
N3610 G01 X1000.739 Y1001.305
N3620 G01 X1000.771 Y1001.287
N3630 G01 X1000.802 Y1001.268
N3640 G01 X1000.833 Y1001.248
N3650 G01 X1000.864 Y1001.227
N3660 G01 X1000.894 Y1001.205
N3670 G01 X1000.923 Y1001.183
N3680 G01 X1000.952 Y1001.16
N3690 G01 X1000.98 Y1001.136
N3700 G01 X1001.008 Y1001.112
N3710 G01 X1001.034 Y1001.087
N3720 G01 X1001.061 Y1001.061
N3730 G01 X1001.087 Y1001.034
N3740 G01 X1001.112 Y1001.008
N3750 G01 X1001.136 Y1000.98
N3760 G01 X1001.16 Y1000.952
N3770 G01 X1001.183 Y1000.923
N3780 G01 X1001.205 Y1000.894
N3790 G01 X1001.227 Y1000.864
N3800 G01 X1001.248 Y1000.833
N3810 G01 X1001.268 Y1000.802
N3820 G01 X1001.287 Y1000.771
N3830 G01 X1001.305 Y1000.739
N3840 G01 X1001.323 Y1000.707
N3850 G01 X1001.34 Y1000.674
N3860 G01 X1001.356 Y1000.641
N3870 G01 X1001.372 Y1000.608
N3880 G01 X1001.386 Y1000.574
N3890 G01 X1001.4 Y1000.54
N3900 G01 X1001.413 Y1000.505
N3910 G01 X1001.425 Y1000.47
N3920 G01 X1001.436 Y1000.435
N3930 G01 X1001.446 Y1000.4
N3940 G01 X1001.456 Y1000.364
N3950 G01 X1001.464 Y1000.328
N3960 G01 X1001.472 Y1000.292
N3970 G01 X1001.478 Y1000.256
N3980 G01 X1001.484 Y1000.22
N3990 G01 X1001.489 Y1000.183
N4000 G01 X1001.493 Y1000.146
N4010 G01 X1001.496 Y1000.11
N4020 G01 X1001.499 Y1000.073
N4030 G01 X1001.5 Y1000.036
N4040 G01 X1001.5 Y1000
N4050 G01 Y-1000
N4060 G01 X1001.5 Y-1000.036
N4070 G01 X1001.499 Y-1000.073
N4080 G01 X1001.496 Y-1000.11
N4090 G01 X1001.493 Y-1000.147
N4100 G01 X1001.489 Y-1000.183
N4110 G01 X1001.484 Y-1000.22
N4120 G01 X1001.478 Y-1000.256
N4130 G01 X1001.472 Y-1000.292
N4140 G01 X1001.464 Y-1000.328
N4150 G01 X1001.456 Y-1000.364
N4160 G01 X1001.446 Y-1000.4
N4170 G01 X1001.436 Y-1000.435
N4180 G01 X1001.425 Y-1000.47
N4190 G01 X1001.413 Y-1000.505
N4200 G01 X1001.4 Y-1000.54
N4210 G01 X1001.386 Y-1000.574
N4220 G01 X1001.372 Y-1000.608
N4230 G01 X1001.356 Y-1000.641
N4240 G01 X1001.34 Y-1000.674
N4250 G01 X1001.323 Y-1000.707
N4260 G01 X1001.305 Y-1000.739
N4270 G01 X1001.287 Y-1000.771
N4280 G01 X1001.268 Y-1000.802
N4290 G01 X1001.248 Y-1000.833
N4300 G01 X1001.227 Y-1000.864
N4310 G01 X1001.205 Y-1000.894
N4320 G01 X1001.183 Y-1000.923
N4330 G01 X1001.16 Y-1000.952
N4340 G01 X1001.136 Y-1000.98
N4350 G01 X1001.112 Y-1001.008
N4360 G01 X1001.087 Y-1001.034
N4370 G01 X1001.061 Y-1001.061
N4380 G01 X1001.034 Y-1001.087
N4390 G01 X1001.008 Y-1001.112
N4400 G01 X1000.98 Y-1001.136
N4410 G01 X1000.952 Y-1001.16
N4420 G01 X1000.923 Y-1001.183
N4430 G01 X1000.894 Y-1001.205
N4440 G01 X1000.864 Y-1001.227
N4450 G01 X1000.833 Y-1001.248
N4460 G01 X1000.802 Y-1001.268
N4470 G01 X1000.771 Y-1001.287
N4480 G01 X1000.739 Y-1001.305
N4490 G01 X1000.707 Y-1001.323
N4500 G01 X1000.674 Y-1001.34
N4510 G01 X1000.641 Y-1001.356
N4520 G01 X1000.608 Y-1001.372
N4530 G01 X1000.574 Y-1001.386
N4540 G01 X1000.54 Y-1001.4
N4550 G01 X1000.505 Y-1001.413
N4560 G01 X1000.47 Y-1001.425
N4570 G01 X1000.435 Y-1001.436
N4580 G01 X1000.4 Y-1001.446
N4590 G01 X1000.364 Y-1001.456
N4600 G01 X1000.328 Y-1001.464
N4610 G01 X1000.292 Y-1001.472
N4620 G01 X1000.256 Y-1001.478
N4630 G01 X1000.22 Y-1001.484
N4640 G01 X1000.183 Y-1001.489
N4650 G01 X1000.146 Y-1001.493
N4660 G01 X1000.11 Y-1001.496
N4670 G01 X1000.073 Y-1001.499
N4680 G01 X1000.036 Y-1001.5
N4690 G01 X1000 Y-1001.5
N4700 G01 X-1000
N4710 G01 X-1000.036 Y-1001.5
N4720 G01 X-1000.073 Y-1001.499
N4730 G01 X-1000.11 Y-1001.496
N4740 G01 X-1000.147 Y-1001.493
N4750 G01 X-1000.183 Y-1001.489
N4760 G01 X-1000.22 Y-1001.484
N4770 G01 X-1000.256 Y-1001.478
N4780 G01 X-1000.292 Y-1001.472
N4790 G01 X-1000.328 Y-1001.464
N4800 G01 X-1000.364 Y-1001.456
N4810 G01 X-1000.4 Y-1001.446
N4820 G01 X-1000.435 Y-1001.436
N4830 G01 X-1000.47 Y-1001.425
N4840 G01 X-1000.505 Y-1001.413
N4850 G01 X-1000.54 Y-1001.4
N4860 G01 X-1000.574 Y-1001.386
N4870 G01 X-1000.608 Y-1001.372
N4880 G01 X-1000.641 Y-1001.356
N4890 G01 X-1000.674 Y-1001.34
N4900 G01 X-1000.707 Y-1001.323
N4910 G01 X-1000.739 Y-1001.305
N4920 G01 X-1000.771 Y-1001.287
N4930 G01 X-1000.802 Y-1001.268
N4940 G01 X-1000.833 Y-1001.248
N4950 G01 X-1000.864 Y-1001.227
N4960 G01 X-1000.894 Y-1001.205
N4970 G01 X-1000.923 Y-1001.183
N4980 G01 X-1000.952 Y-1001.16
N4990 G01 X-1000.98 Y-1001.136
N5000 G01 X-1001.008 Y-1001.112
N5010 G01 X-1001.034 Y-1001.087
N5020 G01 X-1001.061 Y-1001.061
N5030 G01 X-1001.087 Y-1001.034
N5040 G01 X-1001.112 Y-1001.008
N5050 G01 X-1001.136 Y-1000.98
N5060 G01 X-1001.16 Y-1000.952
N5070 G01 X-1001.183 Y-1000.923
N5080 G01 X-1001.205 Y-1000.894
N5090 G01 X-1001.227 Y-1000.864
N5100 G01 X-1001.248 Y-1000.833
N5110 G01 X-1001.268 Y-1000.802
N5120 G01 X-1001.287 Y-1000.771
N5130 G01 X-1001.305 Y-1000.739
N5140 G01 X-1001.323 Y-1000.707
N5150 G01 X-1001.34 Y-1000.674
N5160 G01 X-1001.356 Y-1000.641
N5170 G01 X-1001.372 Y-1000.608
N5180 G01 X-1001.386 Y-1000.574
N5190 G01 X-1001.4 Y-1000.54
N5200 G01 X-1001.413 Y-1000.505
N5210 G01 X-1001.425 Y-1000.47
N5220 G01 X-1001.436 Y-1000.435
N5230 G01 X-1001.446 Y-1000.4
N5240 G01 X-1001.456 Y-1000.364
N5250 G01 X-1001.464 Y-1000.328
N5260 G01 X-1001.472 Y-1000.292
N5270 G01 X-1001.478 Y-1000.256
N5280 G01 X-1001.484 Y-1000.22
N5290 G01 X-1001.489 Y-1000.183
N5300 G01 X-1001.493 Y-1000.146
N5310 G01 X-1001.496 Y-1000.11
N5320 G01 X-1001.499 Y-1000.073
N5330 G01 X-1001.5 Y-1000.036
N5340 G01 X-1001.5 Y-1000
N5350 G01 Y1000
N5360 G01 Z-29.999 F500
N5370 G01 X-1001.5 Y1000.036 F1000
N5380 G01 X-1001.499 Y1000.073
N5390 G01 X-1001.496 Y1000.11
N5400 G01 X-1001.493 Y1000.147
N5410 G01 X-1001.489 Y1000.183
N5420 G01 X-1001.484 Y1000.22
N5430 G01 X-1001.478 Y1000.256
N5440 G01 X-1001.472 Y1000.292
N5450 G01 X-1001.464 Y1000.328
N5460 G01 X-1001.456 Y1000.364
N5470 G01 X-1001.446 Y1000.4
N5480 G01 X-1001.436 Y1000.435
N5490 G01 X-1001.425 Y1000.47
N5500 G01 X-1001.413 Y1000.505
N5510 G01 X-1001.4 Y1000.54
N5520 G01 X-1001.386 Y1000.574
N5530 G01 X-1001.372 Y1000.608
N5540 G01 X-1001.356 Y1000.641
N5550 G01 X-1001.34 Y1000.674
N5560 G01 X-1001.323 Y1000.707
N5570 G01 X-1001.305 Y1000.739
N5580 G01 X-1001.287 Y1000.771
N5590 G01 X-1001.268 Y1000.802
N5600 G01 X-1001.248 Y1000.833
N5610 G01 X-1001.227 Y1000.864
N5620 G01 X-1001.205 Y1000.894
N5630 G01 X-1001.183 Y1000.923
N5640 G01 X-1001.16 Y1000.952
N5650 G01 X-1001.136 Y1000.98
N5660 G01 X-1001.112 Y1001.008
N5670 G01 X-1001.087 Y1001.034
N5680 G01 X-1001.061 Y1001.061
N5690 G01 X-1001.034 Y1001.087
N5700 G01 X-1001.008 Y1001.112
N5710 G01 X-1000.98 Y1001.136
N5720 G01 X-1000.952 Y1001.16
N5730 G01 X-1000.923 Y1001.183
N5740 G01 X-1000.894 Y1001.205
N5750 G01 X-1000.864 Y1001.227
N5760 G01 X-1000.833 Y1001.248
N5770 G01 X-1000.802 Y1001.268
N5780 G01 X-1000.771 Y1001.287
N5790 G01 X-1000.739 Y1001.305
N5800 G01 X-1000.707 Y1001.323
N5810 G01 X-1000.674 Y1001.34
N5820 G01 X-1000.641 Y1001.356
N5830 G01 X-1000.608 Y1001.372
N5840 G01 X-1000.574 Y1001.386
N5850 G01 X-1000.54 Y1001.4
N5860 G01 X-1000.505 Y1001.413
N5870 G01 X-1000.47 Y1001.425
N5880 G01 X-1000.435 Y1001.436
N5890 G01 X-1000.4 Y1001.446
N5900 G01 X-1000.364 Y1001.456
N5910 G01 X-1000.328 Y1001.464
N5920 G01 X-1000.292 Y1001.472
N5930 G01 X-1000.256 Y1001.478
N5940 G01 X-1000.22 Y1001.484
N5950 G01 X-1000.183 Y1001.489
N5960 G01 X-1000.146 Y1001.493
N5970 G01 X-1000.11 Y1001.496
N5980 G01 X-1000.073 Y1001.499
N5990 G01 X-1000.036 Y1001.5
N6000 G01 X-1000 Y1001.5
N6010 G01 X1000
N6020 G01 X1000.036 Y1001.5
N6030 G01 X1000.073 Y1001.499
N6040 G01 X1000.11 Y1001.496
N6050 G01 X1000.147 Y1001.493
N6060 G01 X1000.183 Y1001.489
N6070 G01 X1000.22 Y1001.484
N6080 G01 X1000.256 Y1001.478
N6090 G01 X1000.292 Y1001.472
N6100 G01 X1000.328 Y1001.464
N6110 G01 X1000.364 Y1001.456
N6120 G01 X1000.4 Y1001.446
N6130 G01 X1000.435 Y1001.436
N6140 G01 X1000.47 Y1001.425
N6150 G01 X1000.505 Y1001.413
N6160 G01 X1000.54 Y1001.4
N6170 G01 X1000.574 Y1001.386
N6180 G01 X1000.608 Y1001.372
N6190 G01 X1000.641 Y1001.356
N6200 G01 X1000.674 Y1001.34
N6210 G01 X1000.707 Y1001.323
N6220 G01 X1000.739 Y1001.305
N6230 G01 X1000.771 Y1001.287
N6240 G01 X1000.802 Y1001.268
N6250 G01 X1000.833 Y1001.248
N6260 G01 X1000.864 Y1001.227
N6270 G01 X1000.894 Y1001.205
N6280 G01 X1000.923 Y1001.183
N6290 G01 X1000.952 Y1001.16
N6300 G01 X1000.98 Y1001.136
N6310 G01 X1001.008 Y1001.112
N6320 G01 X1001.034 Y1001.087
N6330 G01 X1001.061 Y1001.061
N6340 G01 X1001.087 Y1001.034
N6350 G01 X1001.112 Y1001.008
N6360 G01 X1001.136 Y1000.98
N6370 G01 X1001.16 Y1000.952
N6380 G01 X1001.183 Y1000.923
N6390 G01 X1001.205 Y1000.894
N6400 G01 X1001.227 Y1000.864
N6410 G01 X1001.248 Y1000.833
N6420 G01 X1001.268 Y1000.802
N6430 G01 X1001.287 Y1000.771
N6440 G01 X1001.305 Y1000.739
N6450 G01 X1001.323 Y1000.707
N6460 G01 X1001.34 Y1000.674
N6470 G01 X1001.356 Y1000.641
N6480 G01 X1001.372 Y1000.608
N6490 G01 X1001.386 Y1000.574
N6500 G01 X1001.4 Y1000.54
N6510 G01 X1001.413 Y1000.505
N6520 G01 X1001.425 Y1000.47
N6530 G01 X1001.436 Y1000.435
N6540 G01 X1001.446 Y1000.4
N6550 G01 X1001.456 Y1000.364
N6560 G01 X1001.464 Y1000.328
N6570 G01 X1001.472 Y1000.292
N6580 G01 X1001.478 Y1000.256
N6590 G01 X1001.484 Y1000.22
N6600 G01 X1001.489 Y1000.183
N6610 G01 X1001.493 Y1000.146
N6620 G01 X1001.496 Y1000.11
N6630 G01 X1001.499 Y1000.073
N6640 G01 X1001.5 Y1000.036
N6650 G01 X1001.5 Y1000
N6660 G01 Y-1000
N6670 G01 X1001.5 Y-1000.036
N6680 G01 X1001.499 Y-1000.073
N6690 G01 X1001.496 Y-1000.11
N6700 G01 X1001.493 Y-1000.147
N6710 G01 X1001.489 Y-1000.183
N6720 G01 X1001.484 Y-1000.22
N6730 G01 X1001.478 Y-1000.256
N6740 G01 X1001.472 Y-1000.292
N6750 G01 X1001.464 Y-1000.328
N6760 G01 X1001.456 Y-1000.364
N6770 G01 X1001.446 Y-1000.4
N6780 G01 X1001.436 Y-1000.435
N6790 G01 X1001.425 Y-1000.47
N6800 G01 X1001.413 Y-1000.505
N6810 G01 X1001.4 Y-1000.54
N6820 G01 X1001.386 Y-1000.574
N6830 G01 X1001.372 Y-1000.608
N6840 G01 X1001.356 Y-1000.641
N6850 G01 X1001.34 Y-1000.674
N6860 G01 X1001.323 Y-1000.707
N6870 G01 X1001.305 Y-1000.739
N6880 G01 X1001.287 Y-1000.771
N6890 G01 X1001.268 Y-1000.802
N6900 G01 X1001.248 Y-1000.833
N6910 G01 X1001.227 Y-1000.864
N6920 G01 X1001.205 Y-1000.894
N6930 G01 X1001.183 Y-1000.923
N6940 G01 X1001.16 Y-1000.952
N6950 G01 X1001.136 Y-1000.98
N6960 G01 X1001.112 Y-1001.008
N6970 G01 X1001.087 Y-1001.034
N6980 G01 X1001.061 Y-1001.061
N6990 G01 X1001.034 Y-1001.087
N7000 G01 X1001.008 Y-1001.112
N7010 G01 X1000.98 Y-1001.136
N7020 G01 X1000.952 Y-1001.16
N7030 G01 X1000.923 Y-1001.183
N7040 G01 X1000.894 Y-1001.205
N7050 G01 X1000.864 Y-1001.227
N7060 G01 X1000.833 Y-1001.248
N7070 G01 X1000.802 Y-1001.268
N7080 G01 X1000.771 Y-1001.287
N7090 G01 X1000.739 Y-1001.305
N7100 G01 X1000.707 Y-1001.323
N7110 G01 X1000.674 Y-1001.34
N7120 G01 X1000.641 Y-1001.356
N7130 G01 X1000.608 Y-1001.372
N7140 G01 X1000.574 Y-1001.386
N7150 G01 X1000.54 Y-1001.4
N7160 G01 X1000.505 Y-1001.413
N7170 G01 X1000.47 Y-1001.425
N7180 G01 X1000.435 Y-1001.436
N7190 G01 X1000.4 Y-1001.446
N7200 G01 X1000.364 Y-1001.456
N7210 G01 X1000.328 Y-1001.464
N7220 G01 X1000.292 Y-1001.472
N7230 G01 X1000.256 Y-1001.478
N7240 G01 X1000.22 Y-1001.484
N7250 G01 X1000.183 Y-1001.489
N7260 G01 X1000.146 Y-1001.493
N7270 G01 X1000.11 Y-1001.496
N7280 G01 X1000.073 Y-1001.499
N7290 G01 X1000.036 Y-1001.5
N7300 G01 X1000 Y-1001.5
N7310 G01 X-1000
N7320 G01 X-1000.036 Y-1001.5
N7330 G01 X-1000.073 Y-1001.499
N7340 G01 X-1000.11 Y-1001.496
N7350 G01 X-1000.147 Y-1001.493
N7360 G01 X-1000.183 Y-1001.489
N7370 G01 X-1000.22 Y-1001.484
N7380 G01 X-1000.256 Y-1001.478
N7390 G01 X-1000.292 Y-1001.472
N7400 G01 X-1000.328 Y-1001.464
N7410 G01 X-1000.364 Y-1001.456
N7420 G01 X-1000.4 Y-1001.446
N7430 G01 X-1000.435 Y-1001.436
N7440 G01 X-1000.47 Y-1001.425
N7450 G01 X-1000.505 Y-1001.413
N7460 G01 X-1000.54 Y-1001.4
N7470 G01 X-1000.574 Y-1001.386
N7480 G01 X-1000.608 Y-1001.372
N7490 G01 X-1000.641 Y-1001.356
N7500 G01 X-1000.674 Y-1001.34
N7510 G01 X-1000.707 Y-1001.323
N7520 G01 X-1000.739 Y-1001.305
N7530 G01 X-1000.771 Y-1001.287
N7540 G01 X-1000.802 Y-1001.268
N7550 G01 X-1000.833 Y-1001.248
N7560 G01 X-1000.864 Y-1001.227
N7570 G01 X-1000.894 Y-1001.205
N7580 G01 X-1000.923 Y-1001.183
N7590 G01 X-1000.952 Y-1001.16
N7600 G01 X-1000.98 Y-1001.136
N7610 G01 X-1001.008 Y-1001.112
N7620 G01 X-1001.034 Y-1001.087
N7630 G01 X-1001.061 Y-1001.061
N7640 G01 X-1001.087 Y-1001.034
N7650 G01 X-1001.112 Y-1001.008
N7660 G01 X-1001.136 Y-1000.98
N7670 G01 X-1001.16 Y-1000.952
N7680 G01 X-1001.183 Y-1000.923
N7690 G01 X-1001.205 Y-1000.894
N7700 G01 X-1001.227 Y-1000.864
N7710 G01 X-1001.248 Y-1000.833
N7720 G01 X-1001.268 Y-1000.802
N7730 G01 X-1001.287 Y-1000.771
N7740 G01 X-1001.305 Y-1000.739
N7750 G01 X-1001.323 Y-1000.707
N7760 G01 X-1001.34 Y-1000.674
N7770 G01 X-1001.356 Y-1000.641
N7780 G01 X-1001.372 Y-1000.608
N7790 G01 X-1001.386 Y-1000.574
N7800 G01 X-1001.4 Y-1000.54
N7810 G01 X-1001.413 Y-1000.505
N7820 G01 X-1001.425 Y-1000.47
N7830 G01 X-1001.436 Y-1000.435
N7840 G01 X-1001.446 Y-1000.4
N7850 G01 X-1001.456 Y-1000.364
N7860 G01 X-1001.464 Y-1000.328
N7870 G01 X-1001.472 Y-1000.292
N7880 G01 X-1001.478 Y-1000.256
N7890 G01 X-1001.484 Y-1000.22
N7900 G01 X-1001.489 Y-1000.183
N7910 G01 X-1001.493 Y-1000.146
N7920 G01 X-1001.496 Y-1000.11
N7930 G01 X-1001.499 Y-1000.073
N7940 G01 X-1001.5 Y-1000.036
N7950 G01 X-1001.5 Y-1000
N7960 G01 Y1000
N7970 G01 Z-39.999 F500
N7980 G01 X-1001.5 Y1000.036 F1000
N7990 G01 X-1001.499 Y1000.073
N8000 G01 X-1001.496 Y1000.11
N8010 G01 X-1001.493 Y1000.147
N8020 G01 X-1001.489 Y1000.183
N8030 G01 X-1001.484 Y1000.22
N8040 G01 X-1001.478 Y1000.256
N8050 G01 X-1001.472 Y1000.292
N8060 G01 X-1001.464 Y1000.328
N8070 G01 X-1001.456 Y1000.364
N8080 G01 X-1001.446 Y1000.4
N8090 G01 X-1001.436 Y1000.435
N8100 G01 X-1001.425 Y1000.47
N8110 G01 X-1001.413 Y1000.505
N8120 G01 X-1001.4 Y1000.54
N8130 G01 X-1001.386 Y1000.574
N8140 G01 X-1001.372 Y1000.608
N8150 G01 X-1001.356 Y1000.641
N8160 G01 X-1001.34 Y1000.674
N8170 G01 X-1001.323 Y1000.707
N8180 G01 X-1001.305 Y1000.739
N8190 G01 X-1001.287 Y1000.771
N8200 G01 X-1001.268 Y1000.802
N8210 G01 X-1001.248 Y1000.833
N8220 G01 X-1001.227 Y1000.864
N8230 G01 X-1001.205 Y1000.894
N8240 G01 X-1001.183 Y1000.923
N8250 G01 X-1001.16 Y1000.952
N8260 G01 X-1001.136 Y1000.98
N8270 G01 X-1001.112 Y1001.008
N8280 G01 X-1001.087 Y1001.034
N8290 G01 X-1001.061 Y1001.061
N8300 G01 X-1001.034 Y1001.087
N8310 G01 X-1001.008 Y1001.112
N8320 G01 X-1000.98 Y1001.136
N8330 G01 X-1000.952 Y1001.16
N8340 G01 X-1000.923 Y1001.183
N8350 G01 X-1000.894 Y1001.205
N8360 G01 X-1000.864 Y1001.227
N8370 G01 X-1000.833 Y1001.248
N8380 G01 X-1000.802 Y1001.268
N8390 G01 X-1000.771 Y1001.287
N8400 G01 X-1000.739 Y1001.305
N8410 G01 X-1000.707 Y1001.323
N8420 G01 X-1000.674 Y1001.34
N8430 G01 X-1000.641 Y1001.356
N8440 G01 X-1000.608 Y1001.372
N8450 G01 X-1000.574 Y1001.386
N8460 G01 X-1000.54 Y1001.4
N8470 G01 X-1000.505 Y1001.413
N8480 G01 X-1000.47 Y1001.425
N8490 G01 X-1000.435 Y1001.436
N8500 G01 X-1000.4 Y1001.446
N8510 G01 X-1000.364 Y1001.456
N8520 G01 X-1000.328 Y1001.464
N8530 G01 X-1000.292 Y1001.472
N8540 G01 X-1000.256 Y1001.478
N8550 G01 X-1000.22 Y1001.484
N8560 G01 X-1000.183 Y1001.489
N8570 G01 X-1000.146 Y1001.493
N8580 G01 X-1000.11 Y1001.496
N8590 G01 X-1000.073 Y1001.499
N8600 G01 X-1000.036 Y1001.5
N8610 G01 X-1000 Y1001.5
N8620 G01 X1000
N8630 G01 X1000.036 Y1001.5
N8640 G01 X1000.073 Y1001.499
N8650 G01 X1000.11 Y1001.496
N8660 G01 X1000.147 Y1001.493
N8670 G01 X1000.183 Y1001.489
N8680 G01 X1000.22 Y1001.484
N8690 G01 X1000.256 Y1001.478
N8700 G01 X1000.292 Y1001.472
N8710 G01 X1000.328 Y1001.464
N8720 G01 X1000.364 Y1001.456
N8730 G01 X1000.4 Y1001.446
N8740 G01 X1000.435 Y1001.436
N8750 G01 X1000.47 Y1001.425
N8760 G01 X1000.505 Y1001.413
N8770 G01 X1000.54 Y1001.4
N8780 G01 X1000.574 Y1001.386
N8790 G01 X1000.608 Y1001.372
N8800 G01 X1000.641 Y1001.356
N8810 G01 X1000.674 Y1001.34
N8820 G01 X1000.707 Y1001.323
N8830 G01 X1000.739 Y1001.305
N8840 G01 X1000.771 Y1001.287
N8850 G01 X1000.802 Y1001.268
N8860 G01 X1000.833 Y1001.248
N8870 G01 X1000.864 Y1001.227
N8880 G01 X1000.894 Y1001.205
N8890 G01 X1000.923 Y1001.183
N8900 G01 X1000.952 Y1001.16
N8910 G01 X1000.98 Y1001.136
N8920 G01 X1001.008 Y1001.112
N8930 G01 X1001.034 Y1001.087
N8940 G01 X1001.061 Y1001.061
N8950 G01 X1001.087 Y1001.034
N8960 G01 X1001.112 Y1001.008
N8970 G01 X1001.136 Y1000.98
N8980 G01 X1001.16 Y1000.952
N8990 G01 X1001.183 Y1000.923
N9000 G01 X1001.205 Y1000.894
N9010 G01 X1001.227 Y1000.864
N9020 G01 X1001.248 Y1000.833
N9030 G01 X1001.268 Y1000.802
N9040 G01 X1001.287 Y1000.771
N9050 G01 X1001.305 Y1000.739
N9060 G01 X1001.323 Y1000.707
N9070 G01 X1001.34 Y1000.674
N9080 G01 X1001.356 Y1000.641
N9090 G01 X1001.372 Y1000.608
N9100 G01 X1001.386 Y1000.574
N9110 G01 X1001.4 Y1000.54
N9120 G01 X1001.413 Y1000.505
N9130 G01 X1001.425 Y1000.47
N9140 G01 X1001.436 Y1000.435
N9150 G01 X1001.446 Y1000.4
N9160 G01 X1001.456 Y1000.364
N9170 G01 X1001.464 Y1000.328
N9180 G01 X1001.472 Y1000.292
N9190 G01 X1001.478 Y1000.256
N9200 G01 X1001.484 Y1000.22
N9210 G01 X1001.489 Y1000.183
N9220 G01 X1001.493 Y1000.146
N9230 G01 X1001.496 Y1000.11
N9240 G01 X1001.499 Y1000.073
N9250 G01 X1001.5 Y1000.036
N9260 G01 X1001.5 Y1000
N9270 G01 Y-1000
N9280 G01 X1001.5 Y-1000.036
N9290 G01 X1001.499 Y-1000.073
N9300 G01 X1001.496 Y-1000.11
N9310 G01 X1001.493 Y-1000.147
N9320 G01 X1001.489 Y-1000.183
N9330 G01 X1001.484 Y-1000.22
N9340 G01 X1001.478 Y-1000.256
N9350 G01 X1001.472 Y-1000.292
N9360 G01 X1001.464 Y-1000.328
N9370 G01 X1001.456 Y-1000.364
N9380 G01 X1001.446 Y-1000.4
N9390 G01 X1001.436 Y-1000.435
N9400 G01 X1001.425 Y-1000.47
N9410 G01 X1001.413 Y-1000.505
N9420 G01 X1001.4 Y-1000.54
N9430 G01 X1001.386 Y-1000.574
N9440 G01 X1001.372 Y-1000.608
N9450 G01 X1001.356 Y-1000.641
N9460 G01 X1001.34 Y-1000.674
N9470 G01 X1001.323 Y-1000.707
N9480 G01 X1001.305 Y-1000.739
N9490 G01 X1001.287 Y-1000.771
N9500 G01 X1001.268 Y-1000.802
N9510 G01 X1001.248 Y-1000.833
N9520 G01 X1001.227 Y-1000.864
N9530 G01 X1001.205 Y-1000.894
N9540 G01 X1001.183 Y-1000.923
N9550 G01 X1001.16 Y-1000.952
N9560 G01 X1001.136 Y-1000.98
N9570 G01 X1001.112 Y-1001.008
N9580 G01 X1001.087 Y-1001.034
N9590 G01 X1001.061 Y-1001.061
N9600 G01 X1001.034 Y-1001.087
N9610 G01 X1001.008 Y-1001.112
N9620 G01 X1000.98 Y-1001.136
N9630 G01 X1000.952 Y-1001.16
N9640 G01 X1000.923 Y-1001.183
N9650 G01 X1000.894 Y-1001.205
N9660 G01 X1000.864 Y-1001.227
N9670 G01 X1000.833 Y-1001.248
N9680 G01 X1000.802 Y-1001.268
N9690 G01 X1000.771 Y-1001.287
N9700 G01 X1000.739 Y-1001.305
N9710 G01 X1000.707 Y-1001.323
N9720 G01 X1000.674 Y-1001.34
N9730 G01 X1000.641 Y-1001.356
N9740 G01 X1000.608 Y-1001.372
N9750 G01 X1000.574 Y-1001.386
N9760 G01 X1000.54 Y-1001.4
N9770 G01 X1000.505 Y-1001.413
N9780 G01 X1000.47 Y-1001.425
N9790 G01 X1000.435 Y-1001.436
N9800 G01 X1000.4 Y-1001.446
N9810 G01 X1000.364 Y-1001.456
N9820 G01 X1000.328 Y-1001.464
N9830 G01 X1000.292 Y-1001.472
N9840 G01 X1000.256 Y-1001.478
N9850 G01 X1000.22 Y-1001.484
N9860 G01 X1000.183 Y-1001.489
N9870 G01 X1000.146 Y-1001.493
N9880 G01 X1000.11 Y-1001.496
N9890 G01 X1000.073 Y-1001.499
N9900 G01 X1000.036 Y-1001.5
N9910 G01 X1000 Y-1001.5
N9920 G01 X-1000
N9930 G01 X-1000.036 Y-1001.5
N9940 G01 X-1000.073 Y-1001.499
N9950 G01 X-1000.11 Y-1001.496
N9960 G01 X-1000.147 Y-1001.493
N9970 G01 X-1000.183 Y-1001.489
N9980 G01 X-1000.22 Y-1001.484
N9990 G01 X-1000.256 Y-1001.478
N10000 G01 X-1000.292 Y-1001.472
N10010 G01 X-1000.328 Y-1001.464
N10020 G01 X-1000.364 Y-1001.456
N10030 G01 X-1000.4 Y-1001.446
N10040 G01 X-1000.435 Y-1001.436
N10050 G01 X-1000.47 Y-1001.425
N10060 G01 X-1000.505 Y-1001.413
N10070 G01 X-1000.54 Y-1001.4
N10080 G01 X-1000.574 Y-1001.386
N10090 G01 X-1000.608 Y-1001.372
N10100 G01 X-1000.641 Y-1001.356
N10110 G01 X-1000.674 Y-1001.34
N10120 G01 X-1000.707 Y-1001.323
N10130 G01 X-1000.739 Y-1001.305
N10140 G01 X-1000.771 Y-1001.287
N10150 G01 X-1000.802 Y-1001.268
N10160 G01 X-1000.833 Y-1001.248
N10170 G01 X-1000.864 Y-1001.227
N10180 G01 X-1000.894 Y-1001.205
N10190 G01 X-1000.923 Y-1001.183
N10200 G01 X-1000.952 Y-1001.16
N10210 G01 X-1000.98 Y-1001.136
N10220 G01 X-1001.008 Y-1001.112
N10230 G01 X-1001.034 Y-1001.087
N10240 G01 X-1001.061 Y-1001.061
N10250 G01 X-1001.087 Y-1001.034
N10260 G01 X-1001.112 Y-1001.008
N10270 G01 X-1001.136 Y-1000.98
N10280 G01 X-1001.16 Y-1000.952
N10290 G01 X-1001.183 Y-1000.923
N10300 G01 X-1001.205 Y-1000.894
N10310 G01 X-1001.227 Y-1000.864
N10320 G01 X-1001.248 Y-1000.833
N10330 G01 X-1001.268 Y-1000.802
N10340 G01 X-1001.287 Y-1000.771
N10350 G01 X-1001.305 Y-1000.739
N10360 G01 X-1001.323 Y-1000.707
N10370 G01 X-1001.34 Y-1000.674
N10380 G01 X-1001.356 Y-1000.641
N10390 G01 X-1001.372 Y-1000.608
N10400 G01 X-1001.386 Y-1000.574
N10410 G01 X-1001.4 Y-1000.54
N10420 G01 X-1001.413 Y-1000.505
N10430 G01 X-1001.425 Y-1000.47
N10440 G01 X-1001.436 Y-1000.435
N10450 G01 X-1001.446 Y-1000.4
N10460 G01 X-1001.456 Y-1000.364
N10470 G01 X-1001.464 Y-1000.328
N10480 G01 X-1001.472 Y-1000.292
N10490 G01 X-1001.478 Y-1000.256
N10500 G01 X-1001.484 Y-1000.22
N10510 G01 X-1001.489 Y-1000.183
N10520 G01 X-1001.493 Y-1000.146
N10530 G01 X-1001.496 Y-1000.11
N10540 G01 X-1001.499 Y-1000.073
N10550 G01 X-1001.5 Y-1000.036
N10560 G01 X-1001.5 Y-1000
N10570 G01 Y1000
N10580 G01 Z-50 F500
N10590 G01 X-1001.5 Y1000.036 F1000
N10600 G01 X-1001.499 Y1000.073
N10610 G01 X-1001.496 Y1000.11
N10620 G01 X-1001.493 Y1000.147
N10630 G01 X-1001.489 Y1000.183
N10640 G01 X-1001.484 Y1000.22
N10650 G01 X-1001.478 Y1000.256
N10660 G01 X-1001.472 Y1000.292
N10670 G01 X-1001.464 Y1000.328
N10680 G01 X-1001.456 Y1000.364
N10690 G01 X-1001.446 Y1000.4
N10700 G01 X-1001.436 Y1000.435
N10710 G01 X-1001.425 Y1000.47
N10720 G01 X-1001.413 Y1000.505
N10730 G01 X-1001.4 Y1000.54
N10740 G01 X-1001.386 Y1000.574
N10750 G01 X-1001.372 Y1000.608
N10760 G01 X-1001.356 Y1000.641
N10770 G01 X-1001.34 Y1000.674
N10780 G01 X-1001.323 Y1000.707
N10790 G01 X-1001.305 Y1000.739
N10800 G01 X-1001.287 Y1000.771
N10810 G01 X-1001.268 Y1000.802
N10820 G01 X-1001.248 Y1000.833
N10830 G01 X-1001.227 Y1000.864
N10840 G01 X-1001.205 Y1000.894
N10850 G01 X-1001.183 Y1000.923
N10860 G01 X-1001.16 Y1000.952
N10870 G01 X-1001.136 Y1000.98
N10880 G01 X-1001.112 Y1001.008
N10890 G01 X-1001.087 Y1001.034
N10900 G01 X-1001.061 Y1001.061
N10910 G01 X-1001.034 Y1001.087
N10920 G01 X-1001.008 Y1001.112
N10930 G01 X-1000.98 Y1001.136
N10940 G01 X-1000.952 Y1001.16
N10950 G01 X-1000.923 Y1001.183
N10960 G01 X-1000.894 Y1001.205
N10970 G01 X-1000.864 Y1001.227
N10980 G01 X-1000.833 Y1001.248
N10990 G01 X-1000.802 Y1001.268
N11000 G01 X-1000.771 Y1001.287
N11010 G01 X-1000.739 Y1001.305
N11020 G01 X-1000.707 Y1001.323
N11030 G01 X-1000.674 Y1001.34
N11040 G01 X-1000.641 Y1001.356
N11050 G01 X-1000.608 Y1001.372
N11060 G01 X-1000.574 Y1001.386
N11070 G01 X-1000.54 Y1001.4
N11080 G01 X-1000.505 Y1001.413
N11090 G01 X-1000.47 Y1001.425
N11100 G01 X-1000.435 Y1001.436
N11110 G01 X-1000.4 Y1001.446
N11120 G01 X-1000.364 Y1001.456
N11130 G01 X-1000.328 Y1001.464
N11140 G01 X-1000.292 Y1001.472
N11150 G01 X-1000.256 Y1001.478
N11160 G01 X-1000.22 Y1001.484
N11170 G01 X-1000.183 Y1001.489
N11180 G01 X-1000.146 Y1001.493
N11190 G01 X-1000.11 Y1001.496
N11200 G01 X-1000.073 Y1001.499
N11210 G01 X-1000.036 Y1001.5
N11220 G01 X-1000 Y1001.5
N11230 G01 X1000
N11240 G01 X1000.036 Y1001.5
N11250 G01 X1000.073 Y1001.499
N11260 G01 X1000.11 Y1001.496
N11270 G01 X1000.147 Y1001.493
N11280 G01 X1000.183 Y1001.489
N11290 G01 X1000.22 Y1001.484
N11300 G01 X1000.256 Y1001.478
N11310 G01 X1000.292 Y1001.472
N11320 G01 X1000.328 Y1001.464
N11330 G01 X1000.364 Y1001.456
N11340 G01 X1000.4 Y1001.446
N11350 G01 X1000.435 Y1001.436
N11360 G01 X1000.47 Y1001.425
N11370 G01 X1000.505 Y1001.413
N11380 G01 X1000.54 Y1001.4
N11390 G01 X1000.574 Y1001.386
N11400 G01 X1000.608 Y1001.372
N11410 G01 X1000.641 Y1001.356
N11420 G01 X1000.674 Y1001.34
N11430 G01 X1000.707 Y1001.323
N11440 G01 X1000.739 Y1001.305
N11450 G01 X1000.771 Y1001.287
N11460 G01 X1000.802 Y1001.268
N11470 G01 X1000.833 Y1001.248
N11480 G01 X1000.864 Y1001.227
N11490 G01 X1000.894 Y1001.205
N11500 G01 X1000.923 Y1001.183
N11510 G01 X1000.952 Y1001.16
N11520 G01 X1000.98 Y1001.136
N11530 G01 X1001.008 Y1001.112
N11540 G01 X1001.034 Y1001.087
N11550 G01 X1001.061 Y1001.061
N11560 G01 X1001.087 Y1001.034
N11570 G01 X1001.112 Y1001.008
N11580 G01 X1001.136 Y1000.98
N11590 G01 X1001.16 Y1000.952
N11600 G01 X1001.183 Y1000.923
N11610 G01 X1001.205 Y1000.894
N11620 G01 X1001.227 Y1000.864
N11630 G01 X1001.248 Y1000.833
N11640 G01 X1001.268 Y1000.802
N11650 G01 X1001.287 Y1000.771
N11660 G01 X1001.305 Y1000.739
N11670 G01 X1001.323 Y1000.707
N11680 G01 X1001.34 Y1000.674
N11690 G01 X1001.356 Y1000.641
N11700 G01 X1001.372 Y1000.608
N11710 G01 X1001.386 Y1000.574
N11720 G01 X1001.4 Y1000.54
N11730 G01 X1001.413 Y1000.505
N11740 G01 X1001.425 Y1000.47
N11750 G01 X1001.436 Y1000.435
N11760 G01 X1001.446 Y1000.4
N11770 G01 X1001.456 Y1000.364
N11780 G01 X1001.464 Y1000.328
N11790 G01 X1001.472 Y1000.292
N11800 G01 X1001.478 Y1000.256
N11810 G01 X1001.484 Y1000.22
N11820 G01 X1001.489 Y1000.183
N11830 G01 X1001.493 Y1000.146
N11840 G01 X1001.496 Y1000.11
N11850 G01 X1001.499 Y1000.073
N11860 G01 X1001.5 Y1000.036
N11870 G01 X1001.5 Y1000
N11880 G01 Y-1000
N11890 G01 X1001.5 Y-1000.036
N11900 G01 X1001.499 Y-1000.073
N11910 G01 X1001.496 Y-1000.11
N11920 G01 X1001.493 Y-1000.147
N11930 G01 X1001.489 Y-1000.183
N11940 G01 X1001.484 Y-1000.22
N11950 G01 X1001.478 Y-1000.256
N11960 G01 X1001.472 Y-1000.292
N11970 G01 X1001.464 Y-1000.328
N11980 G01 X1001.456 Y-1000.364
N11990 G01 X1001.446 Y-1000.4
N12000 G01 X1001.436 Y-1000.435
N12010 G01 X1001.425 Y-1000.47
N12020 G01 X1001.413 Y-1000.505
N12030 G01 X1001.4 Y-1000.54
N12040 G01 X1001.386 Y-1000.574
N12050 G01 X1001.372 Y-1000.608
N12060 G01 X1001.356 Y-1000.641
N12070 G01 X1001.34 Y-1000.674
N12080 G01 X1001.323 Y-1000.707
N12090 G01 X1001.305 Y-1000.739
N12100 G01 X1001.287 Y-1000.771
N12110 G01 X1001.268 Y-1000.802
N12120 G01 X1001.248 Y-1000.833
N12130 G01 X1001.227 Y-1000.864
N12140 G01 X1001.205 Y-1000.894
N12150 G01 X1001.183 Y-1000.923
N12160 G01 X1001.16 Y-1000.952
N12170 G01 X1001.136 Y-1000.98
N12180 G01 X1001.112 Y-1001.008
N12190 G01 X1001.087 Y-1001.034
N12200 G01 X1001.061 Y-1001.061
N12210 G01 X1001.034 Y-1001.087
N12220 G01 X1001.008 Y-1001.112
N12230 G01 X1000.98 Y-1001.136
N12240 G01 X1000.952 Y-1001.16
N12250 G01 X1000.923 Y-1001.183
N12260 G01 X1000.894 Y-1001.205
N12270 G01 X1000.864 Y-1001.227
N12280 G01 X1000.833 Y-1001.248
N12290 G01 X1000.802 Y-1001.268
N12300 G01 X1000.771 Y-1001.287
N12310 G01 X1000.739 Y-1001.305
N12320 G01 X1000.707 Y-1001.323
N12330 G01 X1000.674 Y-1001.34
N12340 G01 X1000.641 Y-1001.356
N12350 G01 X1000.608 Y-1001.372
N12360 G01 X1000.574 Y-1001.386
N12370 G01 X1000.54 Y-1001.4
N12380 G01 X1000.505 Y-1001.413
N12390 G01 X1000.47 Y-1001.425
N12400 G01 X1000.435 Y-1001.436
N12410 G01 X1000.4 Y-1001.446
N12420 G01 X1000.364 Y-1001.456
N12430 G01 X1000.328 Y-1001.464
N12440 G01 X1000.292 Y-1001.472
N12450 G01 X1000.256 Y-1001.478
N12460 G01 X1000.22 Y-1001.484
N12470 G01 X1000.183 Y-1001.489
N12480 G01 X1000.146 Y-1001.493
N12490 G01 X1000.11 Y-1001.496
N12500 G01 X1000.073 Y-1001.499
N12510 G01 X1000.036 Y-1001.5
N12520 G01 X1000 Y-1001.5
N12530 G01 X-1000
N12540 G01 X-1000.036 Y-1001.5
N12550 G01 X-1000.073 Y-1001.499
N12560 G01 X-1000.11 Y-1001.496
N12570 G01 X-1000.147 Y-1001.493
N12580 G01 X-1000.183 Y-1001.489
N12590 G01 X-1000.22 Y-1001.484
N12600 G01 X-1000.256 Y-1001.478
N12610 G01 X-1000.292 Y-1001.472
N12620 G01 X-1000.328 Y-1001.464
N12630 G01 X-1000.364 Y-1001.456
N12640 G01 X-1000.4 Y-1001.446
N12650 G01 X-1000.435 Y-1001.436
N12660 G01 X-1000.47 Y-1001.425
N12670 G01 X-1000.505 Y-1001.413
N12680 G01 X-1000.54 Y-1001.4
N12690 G01 X-1000.574 Y-1001.386
N12700 G01 X-1000.608 Y-1001.372
N12710 G01 X-1000.641 Y-1001.356
N12720 G01 X-1000.674 Y-1001.34
N12730 G01 X-1000.707 Y-1001.323
N12740 G01 X-1000.739 Y-1001.305
N12750 G01 X-1000.771 Y-1001.287
N12760 G01 X-1000.802 Y-1001.268
N12770 G01 X-1000.833 Y-1001.248
N12780 G01 X-1000.864 Y-1001.227
N12790 G01 X-1000.894 Y-1001.205
N12800 G01 X-1000.923 Y-1001.183
N12810 G01 X-1000.952 Y-1001.16
N12820 G01 X-1000.98 Y-1001.136
N12830 G01 X-1001.008 Y-1001.112
N12840 G01 X-1001.034 Y-1001.087
N12850 G01 X-1001.061 Y-1001.061
N12860 G01 X-1001.087 Y-1001.034
N12870 G01 X-1001.112 Y-1001.008
N12880 G01 X-1001.136 Y-1000.98
N12890 G01 X-1001.16 Y-1000.952
N12900 G01 X-1001.183 Y-1000.923
N12910 G01 X-1001.205 Y-1000.894
N12920 G01 X-1001.227 Y-1000.864
N12930 G01 X-1001.248 Y-1000.833
N12940 G01 X-1001.268 Y-1000.802
N12950 G01 X-1001.287 Y-1000.771
N12960 G01 X-1001.305 Y-1000.739
N12970 G01 X-1001.323 Y-1000.707
N12980 G01 X-1001.34 Y-1000.674
N12990 G01 X-1001.356 Y-1000.641
N13000 G01 X-1001.372 Y-1000.608
N13010 G01 X-1001.386 Y-1000.574
N13020 G01 X-1001.4 Y-1000.54
N13030 G01 X-1001.413 Y-1000.505
N13040 G01 X-1001.425 Y-1000.47
N13050 G01 X-1001.436 Y-1000.435
N13060 G01 X-1001.446 Y-1000.4
N13070 G01 X-1001.456 Y-1000.364
N13080 G01 X-1001.464 Y-1000.328
N13090 G01 X-1001.472 Y-1000.292
N13100 G01 X-1001.478 Y-1000.256
N13110 G01 X-1001.484 Y-1000.22
N13120 G01 X-1001.489 Y-1000.183
N13130 G01 X-1001.493 Y-1000.146
N13140 G01 X-1001.496 Y-1000.11
N13150 G01 X-1001.499 Y-1000.073
N13160 G01 X-1001.5 Y-1000.036
N13170 G01 X-1001.5 Y-1000
N13180 G01 Y1000
N13190 G01 Z-59.999 F500
N13200 G01 X-1001.5 Y1000.036 F1000
N13210 G01 X-1001.499 Y1000.073
N13220 G01 X-1001.496 Y1000.11
N13230 G01 X-1001.493 Y1000.147
N13240 G01 X-1001.489 Y1000.183
N13250 G01 X-1001.484 Y1000.22
N13260 G01 X-1001.478 Y1000.256
N13270 G01 X-1001.472 Y1000.292
N13280 G01 X-1001.464 Y1000.328
N13290 G01 X-1001.456 Y1000.364
N13300 G01 X-1001.446 Y1000.4
N13310 G01 X-1001.436 Y1000.435
N13320 G01 X-1001.425 Y1000.47
N13330 G01 X-1001.413 Y1000.505
N13340 G01 X-1001.4 Y1000.54
N13350 G01 X-1001.386 Y1000.574
N13360 G01 X-1001.372 Y1000.608
N13370 G01 X-1001.356 Y1000.641
N13380 G01 X-1001.34 Y1000.674
N13390 G01 X-1001.323 Y1000.707
N13400 G01 X-1001.305 Y1000.739
N13410 G01 X-1001.287 Y1000.771
N13420 G01 X-1001.268 Y1000.802
N13430 G01 X-1001.248 Y1000.833
N13440 G01 X-1001.227 Y1000.864
N13450 G01 X-1001.205 Y1000.894
N13460 G01 X-1001.183 Y1000.923
N13470 G01 X-1001.16 Y1000.952
N13480 G01 X-1001.136 Y1000.98
N13490 G01 X-1001.112 Y1001.008
N13500 G01 X-1001.087 Y1001.034
N13510 G01 X-1001.061 Y1001.061
N13520 G01 X-1001.034 Y1001.087
N13530 G01 X-1001.008 Y1001.112
N13540 G01 X-1000.98 Y1001.136
N13550 G01 X-1000.952 Y1001.16
N13560 G01 X-1000.923 Y1001.183
N13570 G01 X-1000.894 Y1001.205
N13580 G01 X-1000.864 Y1001.227
N13590 G01 X-1000.833 Y1001.248
N13600 G01 X-1000.802 Y1001.268
N13610 G01 X-1000.771 Y1001.287
N13620 G01 X-1000.739 Y1001.305
N13630 G01 X-1000.707 Y1001.323
N13640 G01 X-1000.674 Y1001.34
N13650 G01 X-1000.641 Y1001.356
N13660 G01 X-1000.608 Y1001.372
N13670 G01 X-1000.574 Y1001.386
N13680 G01 X-1000.54 Y1001.4
N13690 G01 X-1000.505 Y1001.413
N13700 G01 X-1000.47 Y1001.425
N13710 G01 X-1000.435 Y1001.436
N13720 G01 X-1000.4 Y1001.446
N13730 G01 X-1000.364 Y1001.456
N13740 G01 X-1000.328 Y1001.464
N13750 G01 X-1000.292 Y1001.472
N13760 G01 X-1000.256 Y1001.478
N13770 G01 X-1000.22 Y1001.484
N13780 G01 X-1000.183 Y1001.489
N13790 G01 X-1000.146 Y1001.493
N13800 G01 X-1000.11 Y1001.496
N13810 G01 X-1000.073 Y1001.499
N13820 G01 X-1000.036 Y1001.5
N13830 G01 X-1000 Y1001.5
N13840 G01 X1000
N13850 G01 X1000.036 Y1001.5
N13860 G01 X1000.073 Y1001.499
N13870 G01 X1000.11 Y1001.496
N13880 G01 X1000.147 Y1001.493
N13890 G01 X1000.183 Y1001.489
N13900 G01 X1000.22 Y1001.484
N13910 G01 X1000.256 Y1001.478
N13920 G01 X1000.292 Y1001.472
N13930 G01 X1000.328 Y1001.464
N13940 G01 X1000.364 Y1001.456
N13950 G01 X1000.4 Y1001.446
N13960 G01 X1000.435 Y1001.436
N13970 G01 X1000.47 Y1001.425
N13980 G01 X1000.505 Y1001.413
N13990 G01 X1000.54 Y1001.4
N14000 G01 X1000.574 Y1001.386
N14010 G01 X1000.608 Y1001.372
N14020 G01 X1000.641 Y1001.356
N14030 G01 X1000.674 Y1001.34
N14040 G01 X1000.707 Y1001.323
N14050 G01 X1000.739 Y1001.305
N14060 G01 X1000.771 Y1001.287
N14070 G01 X1000.802 Y1001.268
N14080 G01 X1000.833 Y1001.248
N14090 G01 X1000.864 Y1001.227
N14100 G01 X1000.894 Y1001.205
N14110 G01 X1000.923 Y1001.183
N14120 G01 X1000.952 Y1001.16
N14130 G01 X1000.98 Y1001.136
N14140 G01 X1001.008 Y1001.112
N14150 G01 X1001.034 Y1001.087
N14160 G01 X1001.061 Y1001.061
N14170 G01 X1001.087 Y1001.034
N14180 G01 X1001.112 Y1001.008
N14190 G01 X1001.136 Y1000.98
N14200 G01 X1001.16 Y1000.952
N14210 G01 X1001.183 Y1000.923
N14220 G01 X1001.205 Y1000.894
N14230 G01 X1001.227 Y1000.864
N14240 G01 X1001.248 Y1000.833
N14250 G01 X1001.268 Y1000.802
N14260 G01 X1001.287 Y1000.771
N14270 G01 X1001.305 Y1000.739
N14280 G01 X1001.323 Y1000.707
N14290 G01 X1001.34 Y1000.674
N14300 G01 X1001.356 Y1000.641
N14310 G01 X1001.372 Y1000.608
N14320 G01 X1001.386 Y1000.574
N14330 G01 X1001.4 Y1000.54
N14340 G01 X1001.413 Y1000.505
N14350 G01 X1001.425 Y1000.47
N14360 G01 X1001.436 Y1000.435
N14370 G01 X1001.446 Y1000.4
N14380 G01 X1001.456 Y1000.364
N14390 G01 X1001.464 Y1000.328
N14400 G01 X1001.472 Y1000.292
N14410 G01 X1001.478 Y1000.256
N14420 G01 X1001.484 Y1000.22
N14430 G01 X1001.489 Y1000.183
N14440 G01 X1001.493 Y1000.146
N14450 G01 X1001.496 Y1000.11
N14460 G01 X1001.499 Y1000.073
N14470 G01 X1001.5 Y1000.036
N14480 G01 X1001.5 Y1000
N14490 G01 Y-1000
N14500 G01 X1001.5 Y-1000.036
N14510 G01 X1001.499 Y-1000.073
N14520 G01 X1001.496 Y-1000.11
N14530 G01 X1001.493 Y-1000.147
N14540 G01 X1001.489 Y-1000.183
N14550 G01 X1001.484 Y-1000.22
N14560 G01 X1001.478 Y-1000.256
N14570 G01 X1001.472 Y-1000.292
N14580 G01 X1001.464 Y-1000.328
N14590 G01 X1001.456 Y-1000.364
N14600 G01 X1001.446 Y-1000.4
N14610 G01 X1001.436 Y-1000.435
N14620 G01 X1001.425 Y-1000.47
N14630 G01 X1001.413 Y-1000.505
N14640 G01 X1001.4 Y-1000.54
N14650 G01 X1001.386 Y-1000.574
N14660 G01 X1001.372 Y-1000.608
N14670 G01 X1001.356 Y-1000.641
N14680 G01 X1001.34 Y-1000.674
N14690 G01 X1001.323 Y-1000.707
N14700 G01 X1001.305 Y-1000.739
N14710 G01 X1001.287 Y-1000.771
N14720 G01 X1001.268 Y-1000.802
N14730 G01 X1001.248 Y-1000.833
N14740 G01 X1001.227 Y-1000.864
N14750 G01 X1001.205 Y-1000.894
N14760 G01 X1001.183 Y-1000.923
N14770 G01 X1001.16 Y-1000.952
N14780 G01 X1001.136 Y-1000.98
N14790 G01 X1001.112 Y-1001.008
N14800 G01 X1001.087 Y-1001.034
N14810 G01 X1001.061 Y-1001.061
N14820 G01 X1001.034 Y-1001.087
N14830 G01 X1001.008 Y-1001.112
N14840 G01 X1000.98 Y-1001.136
N14850 G01 X1000.952 Y-1001.16
N14860 G01 X1000.923 Y-1001.183
N14870 G01 X1000.894 Y-1001.205
N14880 G01 X1000.864 Y-1001.227
N14890 G01 X1000.833 Y-1001.248
N14900 G01 X1000.802 Y-1001.268
N14910 G01 X1000.771 Y-1001.287
N14920 G01 X1000.739 Y-1001.305
N14930 G01 X1000.707 Y-1001.323
N14940 G01 X1000.674 Y-1001.34
N14950 G01 X1000.641 Y-1001.356
N14960 G01 X1000.608 Y-1001.372
N14970 G01 X1000.574 Y-1001.386
N14980 G01 X1000.54 Y-1001.4
N14990 G01 X1000.505 Y-1001.413
N15000 G01 X1000.47 Y-1001.425
N15010 G01 X1000.435 Y-1001.436
N15020 G01 X1000.4 Y-1001.446
N15030 G01 X1000.364 Y-1001.456
N15040 G01 X1000.328 Y-1001.464
N15050 G01 X1000.292 Y-1001.472
N15060 G01 X1000.256 Y-1001.478
N15070 G01 X1000.22 Y-1001.484
N15080 G01 X1000.183 Y-1001.489
N15090 G01 X1000.146 Y-1001.493
N15100 G01 X1000.11 Y-1001.496
N15110 G01 X1000.073 Y-1001.499
N15120 G01 X1000.036 Y-1001.5
N15130 G01 X1000 Y-1001.5
N15140 G01 X-1000
N15150 G01 X-1000.036 Y-1001.5
N15160 G01 X-1000.073 Y-1001.499
N15170 G01 X-1000.11 Y-1001.496
N15180 G01 X-1000.147 Y-1001.493
N15190 G01 X-1000.183 Y-1001.489
N15200 G01 X-1000.22 Y-1001.484
N15210 G01 X-1000.256 Y-1001.478
N15220 G01 X-1000.292 Y-1001.472
N15230 G01 X-1000.328 Y-1001.464
N15240 G01 X-1000.364 Y-1001.456
N15250 G01 X-1000.4 Y-1001.446
N15260 G01 X-1000.435 Y-1001.436
N15270 G01 X-1000.47 Y-1001.425
N15280 G01 X-1000.505 Y-1001.413
N15290 G01 X-1000.54 Y-1001.4
N15300 G01 X-1000.574 Y-1001.386
N15310 G01 X-1000.608 Y-1001.372
N15320 G01 X-1000.641 Y-1001.356
N15330 G01 X-1000.674 Y-1001.34
N15340 G01 X-1000.707 Y-1001.323
N15350 G01 X-1000.739 Y-1001.305
N15360 G01 X-1000.771 Y-1001.287
N15370 G01 X-1000.802 Y-1001.268
N15380 G01 X-1000.833 Y-1001.248
N15390 G01 X-1000.864 Y-1001.227
N15400 G01 X-1000.894 Y-1001.205
N15410 G01 X-1000.923 Y-1001.183
N15420 G01 X-1000.952 Y-1001.16
N15430 G01 X-1000.98 Y-1001.136
N15440 G01 X-1001.008 Y-1001.112
N15450 G01 X-1001.034 Y-1001.087
N15460 G01 X-1001.061 Y-1001.061
N15470 G01 X-1001.087 Y-1001.034
N15480 G01 X-1001.112 Y-1001.008
N15490 G01 X-1001.136 Y-1000.98
N15500 G01 X-1001.16 Y-1000.952
N15510 G01 X-1001.183 Y-1000.923
N15520 G01 X-1001.205 Y-1000.894
N15530 G01 X-1001.227 Y-1000.864
N15540 G01 X-1001.248 Y-1000.833
N15550 G01 X-1001.268 Y-1000.802
N15560 G01 X-1001.287 Y-1000.771
N15570 G01 X-1001.305 Y-1000.739
N15580 G01 X-1001.323 Y-1000.707
N15590 G01 X-1001.34 Y-1000.674
N15600 G01 X-1001.356 Y-1000.641
N15610 G01 X-1001.372 Y-1000.608
N15620 G01 X-1001.386 Y-1000.574
N15630 G01 X-1001.4 Y-1000.54
N15640 G01 X-1001.413 Y-1000.505
N15650 G01 X-1001.425 Y-1000.47
N15660 G01 X-1001.436 Y-1000.435
N15670 G01 X-1001.446 Y-1000.4
N15680 G01 X-1001.456 Y-1000.364
N15690 G01 X-1001.464 Y-1000.328
N15700 G01 X-1001.472 Y-1000.292
N15710 G01 X-1001.478 Y-1000.256
N15720 G01 X-1001.484 Y-1000.22
N15730 G01 X-1001.489 Y-1000.183
N15740 G01 X-1001.493 Y-1000.146
N15750 G01 X-1001.496 Y-1000.11
N15760 G01 X-1001.499 Y-1000.073
N15770 G01 X-1001.5 Y-1000.036
N15780 G01 X-1001.5 Y-1000
N15790 G01 Y1000
N15800 G01 Z-70 F500
N15810 G01 X-1001.5 Y1000.036 F1000
N15820 G01 X-1001.499 Y1000.073
N15830 G01 X-1001.496 Y1000.11
N15840 G01 X-1001.493 Y1000.147
N15850 G01 X-1001.489 Y1000.183
N15860 G01 X-1001.484 Y1000.22
N15870 G01 X-1001.478 Y1000.256
N15880 G01 X-1001.472 Y1000.292
N15890 G01 X-1001.464 Y1000.328
N15900 G01 X-1001.456 Y1000.364
N15910 G01 X-1001.446 Y1000.4
N15920 G01 X-1001.436 Y1000.435
N15930 G01 X-1001.425 Y1000.47
N15940 G01 X-1001.413 Y1000.505
N15950 G01 X-1001.4 Y1000.54
N15960 G01 X-1001.386 Y1000.574
N15970 G01 X-1001.372 Y1000.608
N15980 G01 X-1001.356 Y1000.641
N15990 G01 X-1001.34 Y1000.674
N16000 G01 X-1001.323 Y1000.707
N16010 G01 X-1001.305 Y1000.739
N16020 G01 X-1001.287 Y1000.771
N16030 G01 X-1001.268 Y1000.802
N16040 G01 X-1001.248 Y1000.833
N16050 G01 X-1001.227 Y1000.864
N16060 G01 X-1001.205 Y1000.894
N16070 G01 X-1001.183 Y1000.923
N16080 G01 X-1001.16 Y1000.952
N16090 G01 X-1001.136 Y1000.98
N16100 G01 X-1001.112 Y1001.008
N16110 G01 X-1001.087 Y1001.034
N16120 G01 X-1001.061 Y1001.061
N16130 G01 X-1001.034 Y1001.087
N16140 G01 X-1001.008 Y1001.112
N16150 G01 X-1000.98 Y1001.136
N16160 G01 X-1000.952 Y1001.16
N16170 G01 X-1000.923 Y1001.183
N16180 G01 X-1000.894 Y1001.205
N16190 G01 X-1000.864 Y1001.227
N16200 G01 X-1000.833 Y1001.248
N16210 G01 X-1000.802 Y1001.268
N16220 G01 X-1000.771 Y1001.287
N16230 G01 X-1000.739 Y1001.305
N16240 G01 X-1000.707 Y1001.323
N16250 G01 X-1000.674 Y1001.34
N16260 G01 X-1000.641 Y1001.356
N16270 G01 X-1000.608 Y1001.372
N16280 G01 X-1000.574 Y1001.386
N16290 G01 X-1000.54 Y1001.4
N16300 G01 X-1000.505 Y1001.413
N16310 G01 X-1000.47 Y1001.425
N16320 G01 X-1000.435 Y1001.436
N16330 G01 X-1000.4 Y1001.446
N16340 G01 X-1000.364 Y1001.456
N16350 G01 X-1000.328 Y1001.464
N16360 G01 X-1000.292 Y1001.472
N16370 G01 X-1000.256 Y1001.478
N16380 G01 X-1000.22 Y1001.484
N16390 G01 X-1000.183 Y1001.489
N16400 G01 X-1000.146 Y1001.493
N16410 G01 X-1000.11 Y1001.496
N16420 G01 X-1000.073 Y1001.499
N16430 G01 X-1000.036 Y1001.5
N16440 G01 X-1000 Y1001.5
N16450 G01 X1000
N16460 G01 X1000.036 Y1001.5
N16470 G01 X1000.073 Y1001.499
N16480 G01 X1000.11 Y1001.496
N16490 G01 X1000.147 Y1001.493
N16500 G01 X1000.183 Y1001.489
N16510 G01 X1000.22 Y1001.484
N16520 G01 X1000.256 Y1001.478
N16530 G01 X1000.292 Y1001.472
N16540 G01 X1000.328 Y1001.464
N16550 G01 X1000.364 Y1001.456
N16560 G01 X1000.4 Y1001.446
N16570 G01 X1000.435 Y1001.436
N16580 G01 X1000.47 Y1001.425
N16590 G01 X1000.505 Y1001.413
N16600 G01 X1000.54 Y1001.4
N16610 G01 X1000.574 Y1001.386
N16620 G01 X1000.608 Y1001.372
N16630 G01 X1000.641 Y1001.356
N16640 G01 X1000.674 Y1001.34
N16650 G01 X1000.707 Y1001.323
N16660 G01 X1000.739 Y1001.305
N16670 G01 X1000.771 Y1001.287
N16680 G01 X1000.802 Y1001.268
N16690 G01 X1000.833 Y1001.248
N16700 G01 X1000.864 Y1001.227
N16710 G01 X1000.894 Y1001.205
N16720 G01 X1000.923 Y1001.183
N16730 G01 X1000.952 Y1001.16
N16740 G01 X1000.98 Y1001.136
N16750 G01 X1001.008 Y1001.112
N16760 G01 X1001.034 Y1001.087
N16770 G01 X1001.061 Y1001.061
N16780 G01 X1001.087 Y1001.034
N16790 G01 X1001.112 Y1001.008
N16800 G01 X1001.136 Y1000.98
N16810 G01 X1001.16 Y1000.952
N16820 G01 X1001.183 Y1000.923
N16830 G01 X1001.205 Y1000.894
N16840 G01 X1001.227 Y1000.864
N16850 G01 X1001.248 Y1000.833
N16860 G01 X1001.268 Y1000.802
N16870 G01 X1001.287 Y1000.771
N16880 G01 X1001.305 Y1000.739
N16890 G01 X1001.323 Y1000.707
N16900 G01 X1001.34 Y1000.674
N16910 G01 X1001.356 Y1000.641
N16920 G01 X1001.372 Y1000.608
N16930 G01 X1001.386 Y1000.574
N16940 G01 X1001.4 Y1000.54
N16950 G01 X1001.413 Y1000.505
N16960 G01 X1001.425 Y1000.47
N16970 G01 X1001.436 Y1000.435
N16980 G01 X1001.446 Y1000.4
N16990 G01 X1001.456 Y1000.364
N17000 G01 X1001.464 Y1000.328
N17010 G01 X1001.472 Y1000.292
N17020 G01 X1001.478 Y1000.256
N17030 G01 X1001.484 Y1000.22
N17040 G01 X1001.489 Y1000.183
N17050 G01 X1001.493 Y1000.146
N17060 G01 X1001.496 Y1000.11
N17070 G01 X1001.499 Y1000.073
N17080 G01 X1001.5 Y1000.036
N17090 G01 X1001.5 Y1000
N17100 G01 Y-1000
N17110 G01 X1001.5 Y-1000.036
N17120 G01 X1001.499 Y-1000.073
N17130 G01 X1001.496 Y-1000.11
N17140 G01 X1001.493 Y-1000.147
N17150 G01 X1001.489 Y-1000.183
N17160 G01 X1001.484 Y-1000.22
N17170 G01 X1001.478 Y-1000.256
N17180 G01 X1001.472 Y-1000.292
N17190 G01 X1001.464 Y-1000.328
N17200 G01 X1001.456 Y-1000.364
N17210 G01 X1001.446 Y-1000.4
N17220 G01 X1001.436 Y-1000.435
N17230 G01 X1001.425 Y-1000.47
N17240 G01 X1001.413 Y-1000.505
N17250 G01 X1001.4 Y-1000.54
N17260 G01 X1001.386 Y-1000.574
N17270 G01 X1001.372 Y-1000.608
N17280 G01 X1001.356 Y-1000.641
N17290 G01 X1001.34 Y-1000.674
N17300 G01 X1001.323 Y-1000.707
N17310 G01 X1001.305 Y-1000.739
N17320 G01 X1001.287 Y-1000.771
N17330 G01 X1001.268 Y-1000.802
N17340 G01 X1001.248 Y-1000.833
N17350 G01 X1001.227 Y-1000.864
N17360 G01 X1001.205 Y-1000.894
N17370 G01 X1001.183 Y-1000.923
N17380 G01 X1001.16 Y-1000.952
N17390 G01 X1001.136 Y-1000.98
N17400 G01 X1001.112 Y-1001.008
N17410 G01 X1001.087 Y-1001.034
N17420 G01 X1001.061 Y-1001.061
N17430 G01 X1001.034 Y-1001.087
N17440 G01 X1001.008 Y-1001.112
N17450 G01 X1000.98 Y-1001.136
N17460 G01 X1000.952 Y-1001.16
N17470 G01 X1000.923 Y-1001.183
N17480 G01 X1000.894 Y-1001.205
N17490 G01 X1000.864 Y-1001.227
N17500 G01 X1000.833 Y-1001.248
N17510 G01 X1000.802 Y-1001.268
N17520 G01 X1000.771 Y-1001.287
N17530 G01 X1000.739 Y-1001.305
N17540 G01 X1000.707 Y-1001.323
N17550 G01 X1000.674 Y-1001.34
N17560 G01 X1000.641 Y-1001.356
N17570 G01 X1000.608 Y-1001.372
N17580 G01 X1000.574 Y-1001.386
N17590 G01 X1000.54 Y-1001.4
N17600 G01 X1000.505 Y-1001.413
N17610 G01 X1000.47 Y-1001.425
N17620 G01 X1000.435 Y-1001.436
N17630 G01 X1000.4 Y-1001.446
N17640 G01 X1000.364 Y-1001.456
N17650 G01 X1000.328 Y-1001.464
N17660 G01 X1000.292 Y-1001.472
N17670 G01 X1000.256 Y-1001.478
N17680 G01 X1000.22 Y-1001.484
N17690 G01 X1000.183 Y-1001.489
N17700 G01 X1000.146 Y-1001.493
N17710 G01 X1000.11 Y-1001.496
N17720 G01 X1000.073 Y-1001.499
N17730 G01 X1000.036 Y-1001.5
N17740 G01 X1000 Y-1001.5
N17750 G01 X-1000
N17760 G01 X-1000.036 Y-1001.5
N17770 G01 X-1000.073 Y-1001.499
N17780 G01 X-1000.11 Y-1001.496
N17790 G01 X-1000.147 Y-1001.493
N17800 G01 X-1000.183 Y-1001.489
N17810 G01 X-1000.22 Y-1001.484
N17820 G01 X-1000.256 Y-1001.478
N17830 G01 X-1000.292 Y-1001.472
N17840 G01 X-1000.328 Y-1001.464
N17850 G01 X-1000.364 Y-1001.456
N17860 G01 X-1000.4 Y-1001.446
N17870 G01 X-1000.435 Y-1001.436
N17880 G01 X-1000.47 Y-1001.425
N17890 G01 X-1000.505 Y-1001.413
N17900 G01 X-1000.54 Y-1001.4
N17910 G01 X-1000.574 Y-1001.386
N17920 G01 X-1000.608 Y-1001.372
N17930 G01 X-1000.641 Y-1001.356
N17940 G01 X-1000.674 Y-1001.34
N17950 G01 X-1000.707 Y-1001.323
N17960 G01 X-1000.739 Y-1001.305
N17970 G01 X-1000.771 Y-1001.287
N17980 G01 X-1000.802 Y-1001.268
N17990 G01 X-1000.833 Y-1001.248
N18000 G01 X-1000.864 Y-1001.227
N18010 G01 X-1000.894 Y-1001.205
N18020 G01 X-1000.923 Y-1001.183
N18030 G01 X-1000.952 Y-1001.16
N18040 G01 X-1000.98 Y-1001.136
N18050 G01 X-1001.008 Y-1001.112
N18060 G01 X-1001.034 Y-1001.087
N18070 G01 X-1001.061 Y-1001.061
N18080 G01 X-1001.087 Y-1001.034
N18090 G01 X-1001.112 Y-1001.008
N18100 G01 X-1001.136 Y-1000.98
N18110 G01 X-1001.16 Y-1000.952
N18120 G01 X-1001.183 Y-1000.923
N18130 G01 X-1001.205 Y-1000.894
N18140 G01 X-1001.227 Y-1000.864
N18150 G01 X-1001.248 Y-1000.833
N18160 G01 X-1001.268 Y-1000.802
N18170 G01 X-1001.287 Y-1000.771
N18180 G01 X-1001.305 Y-1000.739
N18190 G01 X-1001.323 Y-1000.707
N18200 G01 X-1001.34 Y-1000.674
N18210 G01 X-1001.356 Y-1000.641
N18220 G01 X-1001.372 Y-1000.608
N18230 G01 X-1001.386 Y-1000.574
N18240 G01 X-1001.4 Y-1000.54
N18250 G01 X-1001.413 Y-1000.505
N18260 G01 X-1001.425 Y-1000.47
N18270 G01 X-1001.436 Y-1000.435
N18280 G01 X-1001.446 Y-1000.4
N18290 G01 X-1001.456 Y-1000.364
N18300 G01 X-1001.464 Y-1000.328
N18310 G01 X-1001.472 Y-1000.292
N18320 G01 X-1001.478 Y-1000.256
N18330 G01 X-1001.484 Y-1000.22
N18340 G01 X-1001.489 Y-1000.183
N18350 G01 X-1001.493 Y-1000.146
N18360 G01 X-1001.496 Y-1000.11
N18370 G01 X-1001.499 Y-1000.073
N18380 G01 X-1001.5 Y-1000.036
N18390 G01 X-1001.5 Y-1000
N18400 G01 Y1000
N18410 G01 Z-79.999 F500
N18420 G01 X-1001.5 Y1000.036 F1000
N18430 G01 X-1001.499 Y1000.073
N18440 G01 X-1001.496 Y1000.11
N18450 G01 X-1001.493 Y1000.147
N18460 G01 X-1001.489 Y1000.183
N18470 G01 X-1001.484 Y1000.22
N18480 G01 X-1001.478 Y1000.256
N18490 G01 X-1001.472 Y1000.292
N18500 G01 X-1001.464 Y1000.328
N18510 G01 X-1001.456 Y1000.364
N18520 G01 X-1001.446 Y1000.4
N18530 G01 X-1001.436 Y1000.435
N18540 G01 X-1001.425 Y1000.47
N18550 G01 X-1001.413 Y1000.505
N18560 G01 X-1001.4 Y1000.54
N18570 G01 X-1001.386 Y1000.574
N18580 G01 X-1001.372 Y1000.608
N18590 G01 X-1001.356 Y1000.641
N18600 G01 X-1001.34 Y1000.674
N18610 G01 X-1001.323 Y1000.707
N18620 G01 X-1001.305 Y1000.739
N18630 G01 X-1001.287 Y1000.771
N18640 G01 X-1001.268 Y1000.802
N18650 G01 X-1001.248 Y1000.833
N18660 G01 X-1001.227 Y1000.864
N18670 G01 X-1001.205 Y1000.894
N18680 G01 X-1001.183 Y1000.923
N18690 G01 X-1001.16 Y1000.952
N18700 G01 X-1001.136 Y1000.98
N18710 G01 X-1001.112 Y1001.008
N18720 G01 X-1001.087 Y1001.034
N18730 G01 X-1001.061 Y1001.061
N18740 G01 X-1001.034 Y1001.087
N18750 G01 X-1001.008 Y1001.112
N18760 G01 X-1000.98 Y1001.136
N18770 G01 X-1000.952 Y1001.16
N18780 G01 X-1000.923 Y1001.183
N18790 G01 X-1000.894 Y1001.205
N18800 G01 X-1000.864 Y1001.227
N18810 G01 X-1000.833 Y1001.248
N18820 G01 X-1000.802 Y1001.268
N18830 G01 X-1000.771 Y1001.287
N18840 G01 X-1000.739 Y1001.305
N18850 G01 X-1000.707 Y1001.323
N18860 G01 X-1000.674 Y1001.34
N18870 G01 X-1000.641 Y1001.356
N18880 G01 X-1000.608 Y1001.372
N18890 G01 X-1000.574 Y1001.386
N18900 G01 X-1000.54 Y1001.4
N18910 G01 X-1000.505 Y1001.413
N18920 G01 X-1000.47 Y1001.425
N18930 G01 X-1000.435 Y1001.436
N18940 G01 X-1000.4 Y1001.446
N18950 G01 X-1000.364 Y1001.456
N18960 G01 X-1000.328 Y1001.464
N18970 G01 X-1000.292 Y1001.472
N18980 G01 X-1000.256 Y1001.478
N18990 G01 X-1000.22 Y1001.484
N19000 G01 X-1000.183 Y1001.489
N19010 G01 X-1000.146 Y1001.493
N19020 G01 X-1000.11 Y1001.496
N19030 G01 X-1000.073 Y1001.499
N19040 G01 X-1000.036 Y1001.5
N19050 G01 X-1000 Y1001.5
N19060 G01 X1000
N19070 G01 X1000.036 Y1001.5
N19080 G01 X1000.073 Y1001.499
N19090 G01 X1000.11 Y1001.496
N19100 G01 X1000.147 Y1001.493
N19110 G01 X1000.183 Y1001.489
N19120 G01 X1000.22 Y1001.484
N19130 G01 X1000.256 Y1001.478
N19140 G01 X1000.292 Y1001.472
N19150 G01 X1000.328 Y1001.464
N19160 G01 X1000.364 Y1001.456
N19170 G01 X1000.4 Y1001.446
N19180 G01 X1000.435 Y1001.436
N19190 G01 X1000.47 Y1001.425
N19200 G01 X1000.505 Y1001.413
N19210 G01 X1000.54 Y1001.4
N19220 G01 X1000.574 Y1001.386
N19230 G01 X1000.608 Y1001.372
N19240 G01 X1000.641 Y1001.356
N19250 G01 X1000.674 Y1001.34
N19260 G01 X1000.707 Y1001.323
N19270 G01 X1000.739 Y1001.305
N19280 G01 X1000.771 Y1001.287
N19290 G01 X1000.802 Y1001.268
N19300 G01 X1000.833 Y1001.248
N19310 G01 X1000.864 Y1001.227
N19320 G01 X1000.894 Y1001.205
N19330 G01 X1000.923 Y1001.183
N19340 G01 X1000.952 Y1001.16
N19350 G01 X1000.98 Y1001.136
N19360 G01 X1001.008 Y1001.112
N19370 G01 X1001.034 Y1001.087
N19380 G01 X1001.061 Y1001.061
N19390 G01 X1001.087 Y1001.034
N19400 G01 X1001.112 Y1001.008
N19410 G01 X1001.136 Y1000.98
N19420 G01 X1001.16 Y1000.952
N19430 G01 X1001.183 Y1000.923
N19440 G01 X1001.205 Y1000.894
N19450 G01 X1001.227 Y1000.864
N19460 G01 X1001.248 Y1000.833
N19470 G01 X1001.268 Y1000.802
N19480 G01 X1001.287 Y1000.771
N19490 G01 X1001.305 Y1000.739
N19500 G01 X1001.323 Y1000.707
N19510 G01 X1001.34 Y1000.674
N19520 G01 X1001.356 Y1000.641
N19530 G01 X1001.372 Y1000.608
N19540 G01 X1001.386 Y1000.574
N19550 G01 X1001.4 Y1000.54
N19560 G01 X1001.413 Y1000.505
N19570 G01 X1001.425 Y1000.47
N19580 G01 X1001.436 Y1000.435
N19590 G01 X1001.446 Y1000.4
N19600 G01 X1001.456 Y1000.364
N19610 G01 X1001.464 Y1000.328
N19620 G01 X1001.472 Y1000.292
N19630 G01 X1001.478 Y1000.256
N19640 G01 X1001.484 Y1000.22
N19650 G01 X1001.489 Y1000.183
N19660 G01 X1001.493 Y1000.146
N19670 G01 X1001.496 Y1000.11
N19680 G01 X1001.499 Y1000.073
N19690 G01 X1001.5 Y1000.036
N19700 G01 X1001.5 Y1000
N19710 G01 Y-1000
N19720 G01 X1001.5 Y-1000.036
N19730 G01 X1001.499 Y-1000.073
N19740 G01 X1001.496 Y-1000.11
N19750 G01 X1001.493 Y-1000.147
N19760 G01 X1001.489 Y-1000.183
N19770 G01 X1001.484 Y-1000.22
N19780 G01 X1001.478 Y-1000.256
N19790 G01 X1001.472 Y-1000.292
N19800 G01 X1001.464 Y-1000.328
N19810 G01 X1001.456 Y-1000.364
N19820 G01 X1001.446 Y-1000.4
N19830 G01 X1001.436 Y-1000.435
N19840 G01 X1001.425 Y-1000.47
N19850 G01 X1001.413 Y-1000.505
N19860 G01 X1001.4 Y-1000.54
N19870 G01 X1001.386 Y-1000.574
N19880 G01 X1001.372 Y-1000.608
N19890 G01 X1001.356 Y-1000.641
N19900 G01 X1001.34 Y-1000.674
N19910 G01 X1001.323 Y-1000.707
N19920 G01 X1001.305 Y-1000.739
N19930 G01 X1001.287 Y-1000.771
N19940 G01 X1001.268 Y-1000.802
N19950 G01 X1001.248 Y-1000.833
N19960 G01 X1001.227 Y-1000.864
N19970 G01 X1001.205 Y-1000.894
N19980 G01 X1001.183 Y-1000.923
N19990 G01 X1001.16 Y-1000.952
N20000 G01 X1001.136 Y-1000.98
N20010 G01 X1001.112 Y-1001.008
N20020 G01 X1001.087 Y-1001.034
N20030 G01 X1001.061 Y-1001.061
N20040 G01 X1001.034 Y-1001.087
N20050 G01 X1001.008 Y-1001.112
N20060 G01 X1000.98 Y-1001.136
N20070 G01 X1000.952 Y-1001.16
N20080 G01 X1000.923 Y-1001.183
N20090 G01 X1000.894 Y-1001.205
N20100 G01 X1000.864 Y-1001.227
N20110 G01 X1000.833 Y-1001.248
N20120 G01 X1000.802 Y-1001.268
N20130 G01 X1000.771 Y-1001.287
N20140 G01 X1000.739 Y-1001.305
N20150 G01 X1000.707 Y-1001.323
N20160 G01 X1000.674 Y-1001.34
N20170 G01 X1000.641 Y-1001.356
N20180 G01 X1000.608 Y-1001.372
N20190 G01 X1000.574 Y-1001.386
N20200 G01 X1000.54 Y-1001.4
N20210 G01 X1000.505 Y-1001.413
N20220 G01 X1000.47 Y-1001.425
N20230 G01 X1000.435 Y-1001.436
N20240 G01 X1000.4 Y-1001.446
N20250 G01 X1000.364 Y-1001.456
N20260 G01 X1000.328 Y-1001.464
N20270 G01 X1000.292 Y-1001.472
N20280 G01 X1000.256 Y-1001.478
N20290 G01 X1000.22 Y-1001.484
N20300 G01 X1000.183 Y-1001.489
N20310 G01 X1000.146 Y-1001.493
N20320 G01 X1000.11 Y-1001.496
N20330 G01 X1000.073 Y-1001.499
N20340 G01 X1000.036 Y-1001.5
N20350 G01 X1000 Y-1001.5
N20360 G01 X-1000
N20370 G01 X-1000.036 Y-1001.5
N20380 G01 X-1000.073 Y-1001.499
N20390 G01 X-1000.11 Y-1001.496
N20400 G01 X-1000.147 Y-1001.493
N20410 G01 X-1000.183 Y-1001.489
N20420 G01 X-1000.22 Y-1001.484
N20430 G01 X-1000.256 Y-1001.478
N20440 G01 X-1000.292 Y-1001.472
N20450 G01 X-1000.328 Y-1001.464
N20460 G01 X-1000.364 Y-1001.456
N20470 G01 X-1000.4 Y-1001.446
N20480 G01 X-1000.435 Y-1001.436
N20490 G01 X-1000.47 Y-1001.425
N20500 G01 X-1000.505 Y-1001.413
N20510 G01 X-1000.54 Y-1001.4
N20520 G01 X-1000.574 Y-1001.386
N20530 G01 X-1000.608 Y-1001.372
N20540 G01 X-1000.641 Y-1001.356
N20550 G01 X-1000.674 Y-1001.34
N20560 G01 X-1000.707 Y-1001.323
N20570 G01 X-1000.739 Y-1001.305
N20580 G01 X-1000.771 Y-1001.287
N20590 G01 X-1000.802 Y-1001.268
N20600 G01 X-1000.833 Y-1001.248
N20610 G01 X-1000.864 Y-1001.227
N20620 G01 X-1000.894 Y-1001.205
N20630 G01 X-1000.923 Y-1001.183
N20640 G01 X-1000.952 Y-1001.16
N20650 G01 X-1000.98 Y-1001.136
N20660 G01 X-1001.008 Y-1001.112
N20670 G01 X-1001.034 Y-1001.087
N20680 G01 X-1001.061 Y-1001.061
N20690 G01 X-1001.087 Y-1001.034
N20700 G01 X-1001.112 Y-1001.008
N20710 G01 X-1001.136 Y-1000.98
N20720 G01 X-1001.16 Y-1000.952
N20730 G01 X-1001.183 Y-1000.923
N20740 G01 X-1001.205 Y-1000.894
N20750 G01 X-1001.227 Y-1000.864
N20760 G01 X-1001.248 Y-1000.833
N20770 G01 X-1001.268 Y-1000.802
N20780 G01 X-1001.287 Y-1000.771
N20790 G01 X-1001.305 Y-1000.739
N20800 G01 X-1001.323 Y-1000.707
N20810 G01 X-1001.34 Y-1000.674
N20820 G01 X-1001.356 Y-1000.641
N20830 G01 X-1001.372 Y-1000.608
N20840 G01 X-1001.386 Y-1000.574
N20850 G01 X-1001.4 Y-1000.54
N20860 G01 X-1001.413 Y-1000.505
N20870 G01 X-1001.425 Y-1000.47
N20880 G01 X-1001.436 Y-1000.435
N20890 G01 X-1001.446 Y-1000.4
N20900 G01 X-1001.456 Y-1000.364
N20910 G01 X-1001.464 Y-1000.328
N20920 G01 X-1001.472 Y-1000.292
N20930 G01 X-1001.478 Y-1000.256
N20940 G01 X-1001.484 Y-1000.22
N20950 G01 X-1001.489 Y-1000.183
N20960 G01 X-1001.493 Y-1000.146
N20970 G01 X-1001.496 Y-1000.11
N20980 G01 X-1001.499 Y-1000.073
N20990 G01 X-1001.5 Y-1000.036
N21000 G01 X-1001.5 Y-1000
N21010 G01 Y1000
N21020 G01 Z-90 F500
N21030 G01 X-1001.5 Y1000.036 F1000
N21040 G01 X-1001.499 Y1000.073
N21050 G01 X-1001.496 Y1000.11
N21060 G01 X-1001.493 Y1000.147
N21070 G01 X-1001.489 Y1000.183
N21080 G01 X-1001.484 Y1000.22
N21090 G01 X-1001.478 Y1000.256
N21100 G01 X-1001.472 Y1000.292
N21110 G01 X-1001.464 Y1000.328
N21120 G01 X-1001.456 Y1000.364
N21130 G01 X-1001.446 Y1000.4
N21140 G01 X-1001.436 Y1000.435
N21150 G01 X-1001.425 Y1000.47
N21160 G01 X-1001.413 Y1000.505
N21170 G01 X-1001.4 Y1000.54
N21180 G01 X-1001.386 Y1000.574
N21190 G01 X-1001.372 Y1000.608
N21200 G01 X-1001.356 Y1000.641
N21210 G01 X-1001.34 Y1000.674
N21220 G01 X-1001.323 Y1000.707
N21230 G01 X-1001.305 Y1000.739
N21240 G01 X-1001.287 Y1000.771
N21250 G01 X-1001.268 Y1000.802
N21260 G01 X-1001.248 Y1000.833
N21270 G01 X-1001.227 Y1000.864
N21280 G01 X-1001.205 Y1000.894
N21290 G01 X-1001.183 Y1000.923
N21300 G01 X-1001.16 Y1000.952
N21310 G01 X-1001.136 Y1000.98
N21320 G01 X-1001.112 Y1001.008
N21330 G01 X-1001.087 Y1001.034
N21340 G01 X-1001.061 Y1001.061
N21350 G01 X-1001.034 Y1001.087
N21360 G01 X-1001.008 Y1001.112
N21370 G01 X-1000.98 Y1001.136
N21380 G01 X-1000.952 Y1001.16
N21390 G01 X-1000.923 Y1001.183
N21400 G01 X-1000.894 Y1001.205
N21410 G01 X-1000.864 Y1001.227
N21420 G01 X-1000.833 Y1001.248
N21430 G01 X-1000.802 Y1001.268
N21440 G01 X-1000.771 Y1001.287
N21450 G01 X-1000.739 Y1001.305
N21460 G01 X-1000.707 Y1001.323
N21470 G01 X-1000.674 Y1001.34
N21480 G01 X-1000.641 Y1001.356
N21490 G01 X-1000.608 Y1001.372
N21500 G01 X-1000.574 Y1001.386
N21510 G01 X-1000.54 Y1001.4
N21520 G01 X-1000.505 Y1001.413
N21530 G01 X-1000.47 Y1001.425
N21540 G01 X-1000.435 Y1001.436
N21550 G01 X-1000.4 Y1001.446
N21560 G01 X-1000.364 Y1001.456
N21570 G01 X-1000.328 Y1001.464
N21580 G01 X-1000.292 Y1001.472
N21590 G01 X-1000.256 Y1001.478
N21600 G01 X-1000.22 Y1001.484
N21610 G01 X-1000.183 Y1001.489
N21620 G01 X-1000.146 Y1001.493
N21630 G01 X-1000.11 Y1001.496
N21640 G01 X-1000.073 Y1001.499
N21650 G01 X-1000.036 Y1001.5
N21660 G01 X-1000 Y1001.5
N21670 G01 X1000
N21680 G01 X1000.036 Y1001.5
N21690 G01 X1000.073 Y1001.499
N21700 G01 X1000.11 Y1001.496
N21710 G01 X1000.147 Y1001.493
N21720 G01 X1000.183 Y1001.489
N21730 G01 X1000.22 Y1001.484
N21740 G01 X1000.256 Y1001.478
N21750 G01 X1000.292 Y1001.472
N21760 G01 X1000.328 Y1001.464
N21770 G01 X1000.364 Y1001.456
N21780 G01 X1000.4 Y1001.446
N21790 G01 X1000.435 Y1001.436
N21800 G01 X1000.47 Y1001.425
N21810 G01 X1000.505 Y1001.413
N21820 G01 X1000.54 Y1001.4
N21830 G01 X1000.574 Y1001.386
N21840 G01 X1000.608 Y1001.372
N21850 G01 X1000.641 Y1001.356
N21860 G01 X1000.674 Y1001.34
N21870 G01 X1000.707 Y1001.323
N21880 G01 X1000.739 Y1001.305
N21890 G01 X1000.771 Y1001.287
N21900 G01 X1000.802 Y1001.268
N21910 G01 X1000.833 Y1001.248
N21920 G01 X1000.864 Y1001.227
N21930 G01 X1000.894 Y1001.205
N21940 G01 X1000.923 Y1001.183
N21950 G01 X1000.952 Y1001.16
N21960 G01 X1000.98 Y1001.136
N21970 G01 X1001.008 Y1001.112
N21980 G01 X1001.034 Y1001.087
N21990 G01 X1001.061 Y1001.061
N22000 G01 X1001.087 Y1001.034
N22010 G01 X1001.112 Y1001.008
N22020 G01 X1001.136 Y1000.98
N22030 G01 X1001.16 Y1000.952
N22040 G01 X1001.183 Y1000.923
N22050 G01 X1001.205 Y1000.894
N22060 G01 X1001.227 Y1000.864
N22070 G01 X1001.248 Y1000.833
N22080 G01 X1001.268 Y1000.802
N22090 G01 X1001.287 Y1000.771
N22100 G01 X1001.305 Y1000.739
N22110 G01 X1001.323 Y1000.707
N22120 G01 X1001.34 Y1000.674
N22130 G01 X1001.356 Y1000.641
N22140 G01 X1001.372 Y1000.608
N22150 G01 X1001.386 Y1000.574
N22160 G01 X1001.4 Y1000.54
N22170 G01 X1001.413 Y1000.505
N22180 G01 X1001.425 Y1000.47
N22190 G01 X1001.436 Y1000.435
N22200 G01 X1001.446 Y1000.4
N22210 G01 X1001.456 Y1000.364
N22220 G01 X1001.464 Y1000.328
N22230 G01 X1001.472 Y1000.292
N22240 G01 X1001.478 Y1000.256
N22250 G01 X1001.484 Y1000.22
N22260 G01 X1001.489 Y1000.183
N22270 G01 X1001.493 Y1000.146
N22280 G01 X1001.496 Y1000.11
N22290 G01 X1001.499 Y1000.073
N22300 G01 X1001.5 Y1000.036
N22310 G01 X1001.5 Y1000
N22320 G01 Y-1000
N22330 G01 X1001.5 Y-1000.036
N22340 G01 X1001.499 Y-1000.073
N22350 G01 X1001.496 Y-1000.11
N22360 G01 X1001.493 Y-1000.147
N22370 G01 X1001.489 Y-1000.183
N22380 G01 X1001.484 Y-1000.22
N22390 G01 X1001.478 Y-1000.256
N22400 G01 X1001.472 Y-1000.292
N22410 G01 X1001.464 Y-1000.328
N22420 G01 X1001.456 Y-1000.364
N22430 G01 X1001.446 Y-1000.4
N22440 G01 X1001.436 Y-1000.435
N22450 G01 X1001.425 Y-1000.47
N22460 G01 X1001.413 Y-1000.505
N22470 G01 X1001.4 Y-1000.54
N22480 G01 X1001.386 Y-1000.574
N22490 G01 X1001.372 Y-1000.608
N22500 G01 X1001.356 Y-1000.641
N22510 G01 X1001.34 Y-1000.674
N22520 G01 X1001.323 Y-1000.707
N22530 G01 X1001.305 Y-1000.739
N22540 G01 X1001.287 Y-1000.771
N22550 G01 X1001.268 Y-1000.802
N22560 G01 X1001.248 Y-1000.833
N22570 G01 X1001.227 Y-1000.864
N22580 G01 X1001.205 Y-1000.894
N22590 G01 X1001.183 Y-1000.923
N22600 G01 X1001.16 Y-1000.952
N22610 G01 X1001.136 Y-1000.98
N22620 G01 X1001.112 Y-1001.008
N22630 G01 X1001.087 Y-1001.034
N22640 G01 X1001.061 Y-1001.061
N22650 G01 X1001.034 Y-1001.087
N22660 G01 X1001.008 Y-1001.112
N22670 G01 X1000.98 Y-1001.136
N22680 G01 X1000.952 Y-1001.16
N22690 G01 X1000.923 Y-1001.183
N22700 G01 X1000.894 Y-1001.205
N22710 G01 X1000.864 Y-1001.227
N22720 G01 X1000.833 Y-1001.248
N22730 G01 X1000.802 Y-1001.268
N22740 G01 X1000.771 Y-1001.287
N22750 G01 X1000.739 Y-1001.305
N22760 G01 X1000.707 Y-1001.323
N22770 G01 X1000.674 Y-1001.34
N22780 G01 X1000.641 Y-1001.356
N22790 G01 X1000.608 Y-1001.372
N22800 G01 X1000.574 Y-1001.386
N22810 G01 X1000.54 Y-1001.4
N22820 G01 X1000.505 Y-1001.413
N22830 G01 X1000.47 Y-1001.425
N22840 G01 X1000.435 Y-1001.436
N22850 G01 X1000.4 Y-1001.446
N22860 G01 X1000.364 Y-1001.456
N22870 G01 X1000.328 Y-1001.464
N22880 G01 X1000.292 Y-1001.472
N22890 G01 X1000.256 Y-1001.478
N22900 G01 X1000.22 Y-1001.484
N22910 G01 X1000.183 Y-1001.489
N22920 G01 X1000.146 Y-1001.493
N22930 G01 X1000.11 Y-1001.496
N22940 G01 X1000.073 Y-1001.499
N22950 G01 X1000.036 Y-1001.5
N22960 G01 X1000 Y-1001.5
N22970 G01 X-1000
N22980 G01 X-1000.036 Y-1001.5
N22990 G01 X-1000.073 Y-1001.499
N23000 G01 X-1000.11 Y-1001.496
N23010 G01 X-1000.147 Y-1001.493
N23020 G01 X-1000.183 Y-1001.489
N23030 G01 X-1000.22 Y-1001.484
N23040 G01 X-1000.256 Y-1001.478
N23050 G01 X-1000.292 Y-1001.472
N23060 G01 X-1000.328 Y-1001.464
N23070 G01 X-1000.364 Y-1001.456
N23080 G01 X-1000.4 Y-1001.446
N23090 G01 X-1000.435 Y-1001.436
N23100 G01 X-1000.47 Y-1001.425
N23110 G01 X-1000.505 Y-1001.413
N23120 G01 X-1000.54 Y-1001.4
N23130 G01 X-1000.574 Y-1001.386
N23140 G01 X-1000.608 Y-1001.372
N23150 G01 X-1000.641 Y-1001.356
N23160 G01 X-1000.674 Y-1001.34
N23170 G01 X-1000.707 Y-1001.323
N23180 G01 X-1000.739 Y-1001.305
N23190 G01 X-1000.771 Y-1001.287
N23200 G01 X-1000.802 Y-1001.268
N23210 G01 X-1000.833 Y-1001.248
N23220 G01 X-1000.864 Y-1001.227
N23230 G01 X-1000.894 Y-1001.205
N23240 G01 X-1000.923 Y-1001.183
N23250 G01 X-1000.952 Y-1001.16
N23260 G01 X-1000.98 Y-1001.136
N23270 G01 X-1001.008 Y-1001.112
N23280 G01 X-1001.034 Y-1001.087
N23290 G01 X-1001.061 Y-1001.061
N23300 G01 X-1001.087 Y-1001.034
N23310 G01 X-1001.112 Y-1001.008
N23320 G01 X-1001.136 Y-1000.98
N23330 G01 X-1001.16 Y-1000.952
N23340 G01 X-1001.183 Y-1000.923
N23350 G01 X-1001.205 Y-1000.894
N23360 G01 X-1001.227 Y-1000.864
N23370 G01 X-1001.248 Y-1000.833
N23380 G01 X-1001.268 Y-1000.802
N23390 G01 X-1001.287 Y-1000.771
N23400 G01 X-1001.305 Y-1000.739
N23410 G01 X-1001.323 Y-1000.707
N23420 G01 X-1001.34 Y-1000.674
N23430 G01 X-1001.356 Y-1000.641
N23440 G01 X-1001.372 Y-1000.608
N23450 G01 X-1001.386 Y-1000.574
N23460 G01 X-1001.4 Y-1000.54
N23470 G01 X-1001.413 Y-1000.505
N23480 G01 X-1001.425 Y-1000.47
N23490 G01 X-1001.436 Y-1000.435
N23500 G01 X-1001.446 Y-1000.4
N23510 G01 X-1001.456 Y-1000.364
N23520 G01 X-1001.464 Y-1000.328
N23530 G01 X-1001.472 Y-1000.292
N23540 G01 X-1001.478 Y-1000.256
N23550 G01 X-1001.484 Y-1000.22
N23560 G01 X-1001.489 Y-1000.183
N23570 G01 X-1001.493 Y-1000.146
N23580 G01 X-1001.496 Y-1000.11
N23590 G01 X-1001.499 Y-1000.073
N23600 G01 X-1001.5 Y-1000.036
N23610 G01 X-1001.5 Y-1000
N23620 G01 Y1000
N23630 G01 Z-100 F500
N23640 G01 X-1001.5 Y1000.036 F1000
N23650 G01 X-1001.499 Y1000.073
N23660 G01 X-1001.496 Y1000.11
N23670 G01 X-1001.493 Y1000.147
N23680 G01 X-1001.489 Y1000.183
N23690 G01 X-1001.484 Y1000.22
N23700 G01 X-1001.478 Y1000.256
N23710 G01 X-1001.472 Y1000.292
N23720 G01 X-1001.464 Y1000.328
N23730 G01 X-1001.456 Y1000.364
N23740 G01 X-1001.446 Y1000.4
N23750 G01 X-1001.436 Y1000.435
N23760 G01 X-1001.425 Y1000.47
N23770 G01 X-1001.413 Y1000.505
N23780 G01 X-1001.4 Y1000.54
N23790 G01 X-1001.386 Y1000.574
N23800 G01 X-1001.372 Y1000.608
N23810 G01 X-1001.356 Y1000.641
N23820 G01 X-1001.34 Y1000.674
N23830 G01 X-1001.323 Y1000.707
N23840 G01 X-1001.305 Y1000.739
N23850 G01 X-1001.287 Y1000.771
N23860 G01 X-1001.268 Y1000.802
N23870 G01 X-1001.248 Y1000.833
N23880 G01 X-1001.227 Y1000.864
N23890 G01 X-1001.205 Y1000.894
N23900 G01 X-1001.183 Y1000.923
N23910 G01 X-1001.16 Y1000.952
N23920 G01 X-1001.136 Y1000.98
N23930 G01 X-1001.112 Y1001.008
N23940 G01 X-1001.087 Y1001.034
N23950 G01 X-1001.061 Y1001.061
N23960 G01 X-1001.034 Y1001.087
N23970 G01 X-1001.008 Y1001.112
N23980 G01 X-1000.98 Y1001.136
N23990 G01 X-1000.952 Y1001.16
N24000 G01 X-1000.923 Y1001.183
N24010 G01 X-1000.894 Y1001.205
N24020 G01 X-1000.864 Y1001.227
N24030 G01 X-1000.833 Y1001.248
N24040 G01 X-1000.802 Y1001.268
N24050 G01 X-1000.771 Y1001.287
N24060 G01 X-1000.739 Y1001.305
N24070 G01 X-1000.707 Y1001.323
N24080 G01 X-1000.674 Y1001.34
N24090 G01 X-1000.641 Y1001.356
N24100 G01 X-1000.608 Y1001.372
N24110 G01 X-1000.574 Y1001.386
N24120 G01 X-1000.54 Y1001.4
N24130 G01 X-1000.505 Y1001.413
N24140 G01 X-1000.47 Y1001.425
N24150 G01 X-1000.435 Y1001.436
N24160 G01 X-1000.4 Y1001.446
N24170 G01 X-1000.364 Y1001.456
N24180 G01 X-1000.328 Y1001.464
N24190 G01 X-1000.292 Y1001.472
N24200 G01 X-1000.256 Y1001.478
N24210 G01 X-1000.22 Y1001.484
N24220 G01 X-1000.183 Y1001.489
N24230 G01 X-1000.146 Y1001.493
N24240 G01 X-1000.11 Y1001.496
N24250 G01 X-1000.073 Y1001.499
N24260 G01 X-1000.036 Y1001.5
N24270 G01 X-1000 Y1001.5
N24280 G01 X1000
N24290 G01 X1000.036 Y1001.5
N24300 G01 X1000.073 Y1001.499
N24310 G01 X1000.11 Y1001.496
N24320 G01 X1000.147 Y1001.493
N24330 G01 X1000.183 Y1001.489
N24340 G01 X1000.22 Y1001.484
N24350 G01 X1000.256 Y1001.478
N24360 G01 X1000.292 Y1001.472
N24370 G01 X1000.328 Y1001.464
N24380 G01 X1000.364 Y1001.456
N24390 G01 X1000.4 Y1001.446
N24400 G01 X1000.435 Y1001.436
N24410 G01 X1000.47 Y1001.425
N24420 G01 X1000.505 Y1001.413
N24430 G01 X1000.54 Y1001.4
N24440 G01 X1000.574 Y1001.386
N24450 G01 X1000.608 Y1001.372
N24460 G01 X1000.641 Y1001.356
N24470 G01 X1000.674 Y1001.34
N24480 G01 X1000.707 Y1001.323
N24490 G01 X1000.739 Y1001.305
N24500 G01 X1000.771 Y1001.287
N24510 G01 X1000.802 Y1001.268
N24520 G01 X1000.833 Y1001.248
N24530 G01 X1000.864 Y1001.227
N24540 G01 X1000.894 Y1001.205
N24550 G01 X1000.923 Y1001.183
N24560 G01 X1000.952 Y1001.16
N24570 G01 X1000.98 Y1001.136
N24580 G01 X1001.008 Y1001.112
N24590 G01 X1001.034 Y1001.087
N24600 G01 X1001.061 Y1001.061
N24610 G01 X1001.087 Y1001.034
N24620 G01 X1001.112 Y1001.008
N24630 G01 X1001.136 Y1000.98
N24640 G01 X1001.16 Y1000.952
N24650 G01 X1001.183 Y1000.923
N24660 G01 X1001.205 Y1000.894
N24670 G01 X1001.227 Y1000.864
N24680 G01 X1001.248 Y1000.833
N24690 G01 X1001.268 Y1000.802
N24700 G01 X1001.287 Y1000.771
N24710 G01 X1001.305 Y1000.739
N24720 G01 X1001.323 Y1000.707
N24730 G01 X1001.34 Y1000.674
N24740 G01 X1001.356 Y1000.641
N24750 G01 X1001.372 Y1000.608
N24760 G01 X1001.386 Y1000.574
N24770 G01 X1001.4 Y1000.54
N24780 G01 X1001.413 Y1000.505
N24790 G01 X1001.425 Y1000.47
N24800 G01 X1001.436 Y1000.435
N24810 G01 X1001.446 Y1000.4
N24820 G01 X1001.456 Y1000.364
N24830 G01 X1001.464 Y1000.328
N24840 G01 X1001.472 Y1000.292
N24850 G01 X1001.478 Y1000.256
N24860 G01 X1001.484 Y1000.22
N24870 G01 X1001.489 Y1000.183
N24880 G01 X1001.493 Y1000.146
N24890 G01 X1001.496 Y1000.11
N24900 G01 X1001.499 Y1000.073
N24910 G01 X1001.5 Y1000.036
N24920 G01 X1001.5 Y1000
N24930 G01 Y-1000
N24940 G01 X1001.5 Y-1000.036
N24950 G01 X1001.499 Y-1000.073
N24960 G01 X1001.496 Y-1000.11
N24970 G01 X1001.493 Y-1000.147
N24980 G01 X1001.489 Y-1000.183
N24990 G01 X1001.484 Y-1000.22
N25000 G01 X1001.478 Y-1000.256
N25010 G01 X1001.472 Y-1000.292
N25020 G01 X1001.464 Y-1000.328
N25030 G01 X1001.456 Y-1000.364
N25040 G01 X1001.446 Y-1000.4
N25050 G01 X1001.436 Y-1000.435
N25060 G01 X1001.425 Y-1000.47
N25070 G01 X1001.413 Y-1000.505
N25080 G01 X1001.4 Y-1000.54
N25090 G01 X1001.386 Y-1000.574
N25100 G01 X1001.372 Y-1000.608
N25110 G01 X1001.356 Y-1000.641
N25120 G01 X1001.34 Y-1000.674
N25130 G01 X1001.323 Y-1000.707
N25140 G01 X1001.305 Y-1000.739
N25150 G01 X1001.287 Y-1000.771
N25160 G01 X1001.268 Y-1000.802
N25170 G01 X1001.248 Y-1000.833
N25180 G01 X1001.227 Y-1000.864
N25190 G01 X1001.205 Y-1000.894
N25200 G01 X1001.183 Y-1000.923
N25210 G01 X1001.16 Y-1000.952
N25220 G01 X1001.136 Y-1000.98
N25230 G01 X1001.112 Y-1001.008
N25240 G01 X1001.087 Y-1001.034
N25250 G01 X1001.061 Y-1001.061
N25260 G01 X1001.034 Y-1001.087
N25270 G01 X1001.008 Y-1001.112
N25280 G01 X1000.98 Y-1001.136
N25290 G01 X1000.952 Y-1001.16
N25300 G01 X1000.923 Y-1001.183
N25310 G01 X1000.894 Y-1001.205
N25320 G01 X1000.864 Y-1001.227
N25330 G01 X1000.833 Y-1001.248
N25340 G01 X1000.802 Y-1001.268
N25350 G01 X1000.771 Y-1001.287
N25360 G01 X1000.739 Y-1001.305
N25370 G01 X1000.707 Y-1001.323
N25380 G01 X1000.674 Y-1001.34
N25390 G01 X1000.641 Y-1001.356
N25400 G01 X1000.608 Y-1001.372
N25410 G01 X1000.574 Y-1001.386
N25420 G01 X1000.54 Y-1001.4
N25430 G01 X1000.505 Y-1001.413
N25440 G01 X1000.47 Y-1001.425
N25450 G01 X1000.435 Y-1001.436
N25460 G01 X1000.4 Y-1001.446
N25470 G01 X1000.364 Y-1001.456
N25480 G01 X1000.328 Y-1001.464
N25490 G01 X1000.292 Y-1001.472
N25500 G01 X1000.256 Y-1001.478
N25510 G01 X1000.22 Y-1001.484
N25520 G01 X1000.183 Y-1001.489
N25530 G01 X1000.146 Y-1001.493
N25540 G01 X1000.11 Y-1001.496
N25550 G01 X1000.073 Y-1001.499
N25560 G01 X1000.036 Y-1001.5
N25570 G01 X1000 Y-1001.5
N25580 G01 X-1000
N25590 G01 X-1000.036 Y-1001.5
N25600 G01 X-1000.073 Y-1001.499
N25610 G01 X-1000.11 Y-1001.496
N25620 G01 X-1000.147 Y-1001.493
N25630 G01 X-1000.183 Y-1001.489
N25640 G01 X-1000.22 Y-1001.484
N25650 G01 X-1000.256 Y-1001.478
N25660 G01 X-1000.292 Y-1001.472
N25670 G01 X-1000.328 Y-1001.464
N25680 G01 X-1000.364 Y-1001.456
N25690 G01 X-1000.4 Y-1001.446
N25700 G01 X-1000.435 Y-1001.436
N25710 G01 X-1000.47 Y-1001.425
N25720 G01 X-1000.505 Y-1001.413
N25730 G01 X-1000.54 Y-1001.4
N25740 G01 X-1000.574 Y-1001.386
N25750 G01 X-1000.608 Y-1001.372
N25760 G01 X-1000.641 Y-1001.356
N25770 G01 X-1000.674 Y-1001.34
N25780 G01 X-1000.707 Y-1001.323
N25790 G01 X-1000.739 Y-1001.305
N25800 G01 X-1000.771 Y-1001.287
N25810 G01 X-1000.802 Y-1001.268
N25820 G01 X-1000.833 Y-1001.248
N25830 G01 X-1000.864 Y-1001.227
N25840 G01 X-1000.894 Y-1001.205
N25850 G01 X-1000.923 Y-1001.183
N25860 G01 X-1000.952 Y-1001.16
N25870 G01 X-1000.98 Y-1001.136
N25880 G01 X-1001.008 Y-1001.112
N25890 G01 X-1001.034 Y-1001.087
N25900 G01 X-1001.061 Y-1001.061
N25910 G01 X-1001.087 Y-1001.034
N25920 G01 X-1001.112 Y-1001.008
N25930 G01 X-1001.136 Y-1000.98
N25940 G01 X-1001.16 Y-1000.952
N25950 G01 X-1001.183 Y-1000.923
N25960 G01 X-1001.205 Y-1000.894
N25970 G01 X-1001.227 Y-1000.864
N25980 G01 X-1001.248 Y-1000.833
N25990 G01 X-1001.268 Y-1000.802
N26000 G01 X-1001.287 Y-1000.771
N26010 G01 X-1001.305 Y-1000.739
N26020 G01 X-1001.323 Y-1000.707
N26030 G01 X-1001.34 Y-1000.674
N26040 G01 X-1001.356 Y-1000.641
N26050 G01 X-1001.372 Y-1000.608
N26060 G01 X-1001.386 Y-1000.574
N26070 G01 X-1001.4 Y-1000.54
N26080 G01 X-1001.413 Y-1000.505
N26090 G01 X-1001.425 Y-1000.47
N26100 G01 X-1001.436 Y-1000.435
N26110 G01 X-1001.446 Y-1000.4
N26120 G01 X-1001.456 Y-1000.364
N26130 G01 X-1001.464 Y-1000.328
N26140 G01 X-1001.472 Y-1000.292
N26150 G01 X-1001.478 Y-1000.256
N26160 G01 X-1001.484 Y-1000.22
N26170 G01 X-1001.489 Y-1000.183
N26180 G01 X-1001.493 Y-1000.146
N26190 G01 X-1001.496 Y-1000.11
N26200 G01 X-1001.499 Y-1000.073
N26210 G01 X-1001.5 Y-1000.036
N26220 G01 X-1001.5 Y-1000
N26230 G01 Y1000
N26240 G01 Z-109.999 F500
N26250 G01 X-1001.5 Y1000.036 F1000
N26260 G01 X-1001.499 Y1000.073
N26270 G01 X-1001.496 Y1000.11
N26280 G01 X-1001.493 Y1000.147
N26290 G01 X-1001.489 Y1000.183
N26300 G01 X-1001.484 Y1000.22
N26310 G01 X-1001.478 Y1000.256
N26320 G01 X-1001.472 Y1000.292
N26330 G01 X-1001.464 Y1000.328
N26340 G01 X-1001.456 Y1000.364
N26350 G01 X-1001.446 Y1000.4
N26360 G01 X-1001.436 Y1000.435
N26370 G01 X-1001.425 Y1000.47
N26380 G01 X-1001.413 Y1000.505
N26390 G01 X-1001.4 Y1000.54
N26400 G01 X-1001.386 Y1000.574
N26410 G01 X-1001.372 Y1000.608
N26420 G01 X-1001.356 Y1000.641
N26430 G01 X-1001.34 Y1000.674
N26440 G01 X-1001.323 Y1000.707
N26450 G01 X-1001.305 Y1000.739
N26460 G01 X-1001.287 Y1000.771
N26470 G01 X-1001.268 Y1000.802
N26480 G01 X-1001.248 Y1000.833
N26490 G01 X-1001.227 Y1000.864
N26500 G01 X-1001.205 Y1000.894
N26510 G01 X-1001.183 Y1000.923
N26520 G01 X-1001.16 Y1000.952
N26530 G01 X-1001.136 Y1000.98
N26540 G01 X-1001.112 Y1001.008
N26550 G01 X-1001.087 Y1001.034
N26560 G01 X-1001.061 Y1001.061
N26570 G01 X-1001.034 Y1001.087
N26580 G01 X-1001.008 Y1001.112
N26590 G01 X-1000.98 Y1001.136
N26600 G01 X-1000.952 Y1001.16
N26610 G01 X-1000.923 Y1001.183
N26620 G01 X-1000.894 Y1001.205
N26630 G01 X-1000.864 Y1001.227
N26640 G01 X-1000.833 Y1001.248
N26650 G01 X-1000.802 Y1001.268
N26660 G01 X-1000.771 Y1001.287
N26670 G01 X-1000.739 Y1001.305
N26680 G01 X-1000.707 Y1001.323
N26690 G01 X-1000.674 Y1001.34
N26700 G01 X-1000.641 Y1001.356
N26710 G01 X-1000.608 Y1001.372
N26720 G01 X-1000.574 Y1001.386
N26730 G01 X-1000.54 Y1001.4
N26740 G01 X-1000.505 Y1001.413
N26750 G01 X-1000.47 Y1001.425
N26760 G01 X-1000.435 Y1001.436
N26770 G01 X-1000.4 Y1001.446
N26780 G01 X-1000.364 Y1001.456
N26790 G01 X-1000.328 Y1001.464
N26800 G01 X-1000.292 Y1001.472
N26810 G01 X-1000.256 Y1001.478
N26820 G01 X-1000.22 Y1001.484
N26830 G01 X-1000.183 Y1001.489
N26840 G01 X-1000.146 Y1001.493
N26850 G01 X-1000.11 Y1001.496
N26860 G01 X-1000.073 Y1001.499
N26870 G01 X-1000.036 Y1001.5
N26880 G01 X-1000 Y1001.5
N26890 G01 X1000
N26900 G01 X1000.036 Y1001.5
N26910 G01 X1000.073 Y1001.499
N26920 G01 X1000.11 Y1001.496
N26930 G01 X1000.147 Y1001.493
N26940 G01 X1000.183 Y1001.489
N26950 G01 X1000.22 Y1001.484
N26960 G01 X1000.256 Y1001.478
N26970 G01 X1000.292 Y1001.472
N26980 G01 X1000.328 Y1001.464
N26990 G01 X1000.364 Y1001.456
N27000 G01 X1000.4 Y1001.446
N27010 G01 X1000.435 Y1001.436
N27020 G01 X1000.47 Y1001.425
N27030 G01 X1000.505 Y1001.413
N27040 G01 X1000.54 Y1001.4
N27050 G01 X1000.574 Y1001.386
N27060 G01 X1000.608 Y1001.372
N27070 G01 X1000.641 Y1001.356
N27080 G01 X1000.674 Y1001.34
N27090 G01 X1000.707 Y1001.323
N27100 G01 X1000.739 Y1001.305
N27110 G01 X1000.771 Y1001.287
N27120 G01 X1000.802 Y1001.268
N27130 G01 X1000.833 Y1001.248
N27140 G01 X1000.864 Y1001.227
N27150 G01 X1000.894 Y1001.205
N27160 G01 X1000.923 Y1001.183
N27170 G01 X1000.952 Y1001.16
N27180 G01 X1000.98 Y1001.136
N27190 G01 X1001.008 Y1001.112
N27200 G01 X1001.034 Y1001.087
N27210 G01 X1001.061 Y1001.061
N27220 G01 X1001.087 Y1001.034
N27230 G01 X1001.112 Y1001.008
N27240 G01 X1001.136 Y1000.98
N27250 G01 X1001.16 Y1000.952
N27260 G01 X1001.183 Y1000.923
N27270 G01 X1001.205 Y1000.894
N27280 G01 X1001.227 Y1000.864
N27290 G01 X1001.248 Y1000.833
N27300 G01 X1001.268 Y1000.802
N27310 G01 X1001.287 Y1000.771
N27320 G01 X1001.305 Y1000.739
N27330 G01 X1001.323 Y1000.707
N27340 G01 X1001.34 Y1000.674
N27350 G01 X1001.356 Y1000.641
N27360 G01 X1001.372 Y1000.608
N27370 G01 X1001.386 Y1000.574
N27380 G01 X1001.4 Y1000.54
N27390 G01 X1001.413 Y1000.505
N27400 G01 X1001.425 Y1000.47
N27410 G01 X1001.436 Y1000.435
N27420 G01 X1001.446 Y1000.4
N27430 G01 X1001.456 Y1000.364
N27440 G01 X1001.464 Y1000.328
N27450 G01 X1001.472 Y1000.292
N27460 G01 X1001.478 Y1000.256
N27470 G01 X1001.484 Y1000.22
N27480 G01 X1001.489 Y1000.183
N27490 G01 X1001.493 Y1000.146
N27500 G01 X1001.496 Y1000.11
N27510 G01 X1001.499 Y1000.073
N27520 G01 X1001.5 Y1000.036
N27530 G01 X1001.5 Y1000
N27540 G01 Y-1000
N27550 G01 X1001.5 Y-1000.036
N27560 G01 X1001.499 Y-1000.073
N27570 G01 X1001.496 Y-1000.11
N27580 G01 X1001.493 Y-1000.147
N27590 G01 X1001.489 Y-1000.183
N27600 G01 X1001.484 Y-1000.22
N27610 G01 X1001.478 Y-1000.256
N27620 G01 X1001.472 Y-1000.292
N27630 G01 X1001.464 Y-1000.328
N27640 G01 X1001.456 Y-1000.364
N27650 G01 X1001.446 Y-1000.4
N27660 G01 X1001.436 Y-1000.435
N27670 G01 X1001.425 Y-1000.47
N27680 G01 X1001.413 Y-1000.505
N27690 G01 X1001.4 Y-1000.54
N27700 G01 X1001.386 Y-1000.574
N27710 G01 X1001.372 Y-1000.608
N27720 G01 X1001.356 Y-1000.641
N27730 G01 X1001.34 Y-1000.674
N27740 G01 X1001.323 Y-1000.707
N27750 G01 X1001.305 Y-1000.739
N27760 G01 X1001.287 Y-1000.771
N27770 G01 X1001.268 Y-1000.802
N27780 G01 X1001.248 Y-1000.833
N27790 G01 X1001.227 Y-1000.864
N27800 G01 X1001.205 Y-1000.894
N27810 G01 X1001.183 Y-1000.923
N27820 G01 X1001.16 Y-1000.952
N27830 G01 X1001.136 Y-1000.98
N27840 G01 X1001.112 Y-1001.008
N27850 G01 X1001.087 Y-1001.034
N27860 G01 X1001.061 Y-1001.061
N27870 G01 X1001.034 Y-1001.087
N27880 G01 X1001.008 Y-1001.112
N27890 G01 X1000.98 Y-1001.136
N27900 G01 X1000.952 Y-1001.16
N27910 G01 X1000.923 Y-1001.183
N27920 G01 X1000.894 Y-1001.205
N27930 G01 X1000.864 Y-1001.227
N27940 G01 X1000.833 Y-1001.248
N27950 G01 X1000.802 Y-1001.268
N27960 G01 X1000.771 Y-1001.287
N27970 G01 X1000.739 Y-1001.305
N27980 G01 X1000.707 Y-1001.323
N27990 G01 X1000.674 Y-1001.34
N28000 G01 X1000.641 Y-1001.356
N28010 G01 X1000.608 Y-1001.372
N28020 G01 X1000.574 Y-1001.386
N28030 G01 X1000.54 Y-1001.4
N28040 G01 X1000.505 Y-1001.413
N28050 G01 X1000.47 Y-1001.425
N28060 G01 X1000.435 Y-1001.436
N28070 G01 X1000.4 Y-1001.446
N28080 G01 X1000.364 Y-1001.456
N28090 G01 X1000.328 Y-1001.464
N28100 G01 X1000.292 Y-1001.472
N28110 G01 X1000.256 Y-1001.478
N28120 G01 X1000.22 Y-1001.484
N28130 G01 X1000.183 Y-1001.489
N28140 G01 X1000.146 Y-1001.493
N28150 G01 X1000.11 Y-1001.496
N28160 G01 X1000.073 Y-1001.499
N28170 G01 X1000.036 Y-1001.5
N28180 G01 X1000 Y-1001.5
N28190 G01 X-1000
N28200 G01 X-1000.036 Y-1001.5
N28210 G01 X-1000.073 Y-1001.499
N28220 G01 X-1000.11 Y-1001.496
N28230 G01 X-1000.147 Y-1001.493
N28240 G01 X-1000.183 Y-1001.489
N28250 G01 X-1000.22 Y-1001.484
N28260 G01 X-1000.256 Y-1001.478
N28270 G01 X-1000.292 Y-1001.472
N28280 G01 X-1000.328 Y-1001.464
N28290 G01 X-1000.364 Y-1001.456
N28300 G01 X-1000.4 Y-1001.446
N28310 G01 X-1000.435 Y-1001.436
N28320 G01 X-1000.47 Y-1001.425
N28330 G01 X-1000.505 Y-1001.413
N28340 G01 X-1000.54 Y-1001.4
N28350 G01 X-1000.574 Y-1001.386
N28360 G01 X-1000.608 Y-1001.372
N28370 G01 X-1000.641 Y-1001.356
N28380 G01 X-1000.674 Y-1001.34
N28390 G01 X-1000.707 Y-1001.323
N28400 G01 X-1000.739 Y-1001.305
N28410 G01 X-1000.771 Y-1001.287
N28420 G01 X-1000.802 Y-1001.268
N28430 G01 X-1000.833 Y-1001.248
N28440 G01 X-1000.864 Y-1001.227
N28450 G01 X-1000.894 Y-1001.205
N28460 G01 X-1000.923 Y-1001.183
N28470 G01 X-1000.952 Y-1001.16
N28480 G01 X-1000.98 Y-1001.136
N28490 G01 X-1001.008 Y-1001.112
N28500 G01 X-1001.034 Y-1001.087
N28510 G01 X-1001.061 Y-1001.061
N28520 G01 X-1001.087 Y-1001.034
N28530 G01 X-1001.112 Y-1001.008
N28540 G01 X-1001.136 Y-1000.98
N28550 G01 X-1001.16 Y-1000.952
N28560 G01 X-1001.183 Y-1000.923
N28570 G01 X-1001.205 Y-1000.894
N28580 G01 X-1001.227 Y-1000.864
N28590 G01 X-1001.248 Y-1000.833
N28600 G01 X-1001.268 Y-1000.802
N28610 G01 X-1001.287 Y-1000.771
N28620 G01 X-1001.305 Y-1000.739
N28630 G01 X-1001.323 Y-1000.707
N28640 G01 X-1001.34 Y-1000.674
N28650 G01 X-1001.356 Y-1000.641
N28660 G01 X-1001.372 Y-1000.608
N28670 G01 X-1001.386 Y-1000.574
N28680 G01 X-1001.4 Y-1000.54
N28690 G01 X-1001.413 Y-1000.505
N28700 G01 X-1001.425 Y-1000.47
N28710 G01 X-1001.436 Y-1000.435
N28720 G01 X-1001.446 Y-1000.4
N28730 G01 X-1001.456 Y-1000.364
N28740 G01 X-1001.464 Y-1000.328
N28750 G01 X-1001.472 Y-1000.292
N28760 G01 X-1001.478 Y-1000.256
N28770 G01 X-1001.484 Y-1000.22
N28780 G01 X-1001.489 Y-1000.183
N28790 G01 X-1001.493 Y-1000.146
N28800 G01 X-1001.496 Y-1000.11
N28810 G01 X-1001.499 Y-1000.073
N28820 G01 X-1001.5 Y-1000.036
N28830 G01 X-1001.5 Y-1000
N28840 G01 Y1000
N28850 G01 Z-119.999 F500
N28860 G01 X-1001.5 Y1000.036 F1000
N28870 G01 X-1001.499 Y1000.073
N28880 G01 X-1001.496 Y1000.11
N28890 G01 X-1001.493 Y1000.147
N28900 G01 X-1001.489 Y1000.183
N28910 G01 X-1001.484 Y1000.22
N28920 G01 X-1001.478 Y1000.256
N28930 G01 X-1001.472 Y1000.292
N28940 G01 X-1001.464 Y1000.328
N28950 G01 X-1001.456 Y1000.364
N28960 G01 X-1001.446 Y1000.4
N28970 G01 X-1001.436 Y1000.435
N28980 G01 X-1001.425 Y1000.47
N28990 G01 X-1001.413 Y1000.505
N29000 G01 X-1001.4 Y1000.54
N29010 G01 X-1001.386 Y1000.574
N29020 G01 X-1001.372 Y1000.608
N29030 G01 X-1001.356 Y1000.641
N29040 G01 X-1001.34 Y1000.674
N29050 G01 X-1001.323 Y1000.707
N29060 G01 X-1001.305 Y1000.739
N29070 G01 X-1001.287 Y1000.771
N29080 G01 X-1001.268 Y1000.802
N29090 G01 X-1001.248 Y1000.833
N29100 G01 X-1001.227 Y1000.864
N29110 G01 X-1001.205 Y1000.894
N29120 G01 X-1001.183 Y1000.923
N29130 G01 X-1001.16 Y1000.952
N29140 G01 X-1001.136 Y1000.98
N29150 G01 X-1001.112 Y1001.008
N29160 G01 X-1001.087 Y1001.034
N29170 G01 X-1001.061 Y1001.061
N29180 G01 X-1001.034 Y1001.087
N29190 G01 X-1001.008 Y1001.112
N29200 G01 X-1000.98 Y1001.136
N29210 G01 X-1000.952 Y1001.16
N29220 G01 X-1000.923 Y1001.183
N29230 G01 X-1000.894 Y1001.205
N29240 G01 X-1000.864 Y1001.227
N29250 G01 X-1000.833 Y1001.248
N29260 G01 X-1000.802 Y1001.268
N29270 G01 X-1000.771 Y1001.287
N29280 G01 X-1000.739 Y1001.305
N29290 G01 X-1000.707 Y1001.323
N29300 G01 X-1000.674 Y1001.34
N29310 G01 X-1000.641 Y1001.356
N29320 G01 X-1000.608 Y1001.372
N29330 G01 X-1000.574 Y1001.386
N29340 G01 X-1000.54 Y1001.4
N29350 G01 X-1000.505 Y1001.413
N29360 G01 X-1000.47 Y1001.425
N29370 G01 X-1000.435 Y1001.436
N29380 G01 X-1000.4 Y1001.446
N29390 G01 X-1000.364 Y1001.456
N29400 G01 X-1000.328 Y1001.464
N29410 G01 X-1000.292 Y1001.472
N29420 G01 X-1000.256 Y1001.478
N29430 G01 X-1000.22 Y1001.484
N29440 G01 X-1000.183 Y1001.489
N29450 G01 X-1000.146 Y1001.493
N29460 G01 X-1000.11 Y1001.496
N29470 G01 X-1000.073 Y1001.499
N29480 G01 X-1000.036 Y1001.5
N29490 G01 X-1000 Y1001.5
N29500 G01 X1000
N29510 G01 X1000.036 Y1001.5
N29520 G01 X1000.073 Y1001.499
N29530 G01 X1000.11 Y1001.496
N29540 G01 X1000.147 Y1001.493
N29550 G01 X1000.183 Y1001.489
N29560 G01 X1000.22 Y1001.484
N29570 G01 X1000.256 Y1001.478
N29580 G01 X1000.292 Y1001.472
N29590 G01 X1000.328 Y1001.464
N29600 G01 X1000.364 Y1001.456
N29610 G01 X1000.4 Y1001.446
N29620 G01 X1000.435 Y1001.436
N29630 G01 X1000.47 Y1001.425
N29640 G01 X1000.505 Y1001.413
N29650 G01 X1000.54 Y1001.4
N29660 G01 X1000.574 Y1001.386
N29670 G01 X1000.608 Y1001.372
N29680 G01 X1000.641 Y1001.356
N29690 G01 X1000.674 Y1001.34
N29700 G01 X1000.707 Y1001.323
N29710 G01 X1000.739 Y1001.305
N29720 G01 X1000.771 Y1001.287
N29730 G01 X1000.802 Y1001.268
N29740 G01 X1000.833 Y1001.248
N29750 G01 X1000.864 Y1001.227
N29760 G01 X1000.894 Y1001.205
N29770 G01 X1000.923 Y1001.183
N29780 G01 X1000.952 Y1001.16
N29790 G01 X1000.98 Y1001.136
N29800 G01 X1001.008 Y1001.112
N29810 G01 X1001.034 Y1001.087
N29820 G01 X1001.061 Y1001.061
N29830 G01 X1001.087 Y1001.034
N29840 G01 X1001.112 Y1001.008
N29850 G01 X1001.136 Y1000.98
N29860 G01 X1001.16 Y1000.952
N29870 G01 X1001.183 Y1000.923
N29880 G01 X1001.205 Y1000.894
N29890 G01 X1001.227 Y1000.864
N29900 G01 X1001.248 Y1000.833
N29910 G01 X1001.268 Y1000.802
N29920 G01 X1001.287 Y1000.771
N29930 G01 X1001.305 Y1000.739
N29940 G01 X1001.323 Y1000.707
N29950 G01 X1001.34 Y1000.674
N29960 G01 X1001.356 Y1000.641
N29970 G01 X1001.372 Y1000.608
N29980 G01 X1001.386 Y1000.574
N29990 G01 X1001.4 Y1000.54
N30000 G01 X1001.413 Y1000.505
N30010 G01 X1001.425 Y1000.47
N30020 G01 X1001.436 Y1000.435
N30030 G01 X1001.446 Y1000.4
N30040 G01 X1001.456 Y1000.364
N30050 G01 X1001.464 Y1000.328
N30060 G01 X1001.472 Y1000.292
N30070 G01 X1001.478 Y1000.256
N30080 G01 X1001.484 Y1000.22
N30090 G01 X1001.489 Y1000.183
N30100 G01 X1001.493 Y1000.146
N30110 G01 X1001.496 Y1000.11
N30120 G01 X1001.499 Y1000.073
N30130 G01 X1001.5 Y1000.036
N30140 G01 X1001.5 Y1000
N30150 G01 Y-1000
N30160 G01 X1001.5 Y-1000.036
N30170 G01 X1001.499 Y-1000.073
N30180 G01 X1001.496 Y-1000.11
N30190 G01 X1001.493 Y-1000.147
N30200 G01 X1001.489 Y-1000.183
N30210 G01 X1001.484 Y-1000.22
N30220 G01 X1001.478 Y-1000.256
N30230 G01 X1001.472 Y-1000.292
N30240 G01 X1001.464 Y-1000.328
N30250 G01 X1001.456 Y-1000.364
N30260 G01 X1001.446 Y-1000.4
N30270 G01 X1001.436 Y-1000.435
N30280 G01 X1001.425 Y-1000.47
N30290 G01 X1001.413 Y-1000.505
N30300 G01 X1001.4 Y-1000.54
N30310 G01 X1001.386 Y-1000.574
N30320 G01 X1001.372 Y-1000.608
N30330 G01 X1001.356 Y-1000.641
N30340 G01 X1001.34 Y-1000.674
N30350 G01 X1001.323 Y-1000.707
N30360 G01 X1001.305 Y-1000.739
N30370 G01 X1001.287 Y-1000.771
N30380 G01 X1001.268 Y-1000.802
N30390 G01 X1001.248 Y-1000.833
N30400 G01 X1001.227 Y-1000.864
N30410 G01 X1001.205 Y-1000.894
N30420 G01 X1001.183 Y-1000.923
N30430 G01 X1001.16 Y-1000.952
N30440 G01 X1001.136 Y-1000.98
N30450 G01 X1001.112 Y-1001.008
N30460 G01 X1001.087 Y-1001.034
N30470 G01 X1001.061 Y-1001.061
N30480 G01 X1001.034 Y-1001.087
N30490 G01 X1001.008 Y-1001.112
N30500 G01 X1000.98 Y-1001.136
N30510 G01 X1000.952 Y-1001.16
N30520 G01 X1000.923 Y-1001.183
N30530 G01 X1000.894 Y-1001.205
N30540 G01 X1000.864 Y-1001.227
N30550 G01 X1000.833 Y-1001.248
N30560 G01 X1000.802 Y-1001.268
N30570 G01 X1000.771 Y-1001.287
N30580 G01 X1000.739 Y-1001.305
N30590 G01 X1000.707 Y-1001.323
N30600 G01 X1000.674 Y-1001.34
N30610 G01 X1000.641 Y-1001.356
N30620 G01 X1000.608 Y-1001.372
N30630 G01 X1000.574 Y-1001.386
N30640 G01 X1000.54 Y-1001.4
N30650 G01 X1000.505 Y-1001.413
N30660 G01 X1000.47 Y-1001.425
N30670 G01 X1000.435 Y-1001.436
N30680 G01 X1000.4 Y-1001.446
N30690 G01 X1000.364 Y-1001.456
N30700 G01 X1000.328 Y-1001.464
N30710 G01 X1000.292 Y-1001.472
N30720 G01 X1000.256 Y-1001.478
N30730 G01 X1000.22 Y-1001.484
N30740 G01 X1000.183 Y-1001.489
N30750 G01 X1000.146 Y-1001.493
N30760 G01 X1000.11 Y-1001.496
N30770 G01 X1000.073 Y-1001.499
N30780 G01 X1000.036 Y-1001.5
N30790 G01 X1000 Y-1001.5
N30800 G01 X-1000
N30810 G01 X-1000.036 Y-1001.5
N30820 G01 X-1000.073 Y-1001.499
N30830 G01 X-1000.11 Y-1001.496
N30840 G01 X-1000.147 Y-1001.493
N30850 G01 X-1000.183 Y-1001.489
N30860 G01 X-1000.22 Y-1001.484
N30870 G01 X-1000.256 Y-1001.478
N30880 G01 X-1000.292 Y-1001.472
N30890 G01 X-1000.328 Y-1001.464
N30900 G01 X-1000.364 Y-1001.456
N30910 G01 X-1000.4 Y-1001.446
N30920 G01 X-1000.435 Y-1001.436
N30930 G01 X-1000.47 Y-1001.425
N30940 G01 X-1000.505 Y-1001.413
N30950 G01 X-1000.54 Y-1001.4
N30960 G01 X-1000.574 Y-1001.386
N30970 G01 X-1000.608 Y-1001.372
N30980 G01 X-1000.641 Y-1001.356
N30990 G01 X-1000.674 Y-1001.34
N31000 G01 X-1000.707 Y-1001.323
N31010 G01 X-1000.739 Y-1001.305
N31020 G01 X-1000.771 Y-1001.287
N31030 G01 X-1000.802 Y-1001.268
N31040 G01 X-1000.833 Y-1001.248
N31050 G01 X-1000.864 Y-1001.227
N31060 G01 X-1000.894 Y-1001.205
N31070 G01 X-1000.923 Y-1001.183
N31080 G01 X-1000.952 Y-1001.16
N31090 G01 X-1000.98 Y-1001.136
N31100 G01 X-1001.008 Y-1001.112
N31110 G01 X-1001.034 Y-1001.087
N31120 G01 X-1001.061 Y-1001.061
N31130 G01 X-1001.087 Y-1001.034
N31140 G01 X-1001.112 Y-1001.008
N31150 G01 X-1001.136 Y-1000.98
N31160 G01 X-1001.16 Y-1000.952
N31170 G01 X-1001.183 Y-1000.923
N31180 G01 X-1001.205 Y-1000.894
N31190 G01 X-1001.227 Y-1000.864
N31200 G01 X-1001.248 Y-1000.833
N31210 G01 X-1001.268 Y-1000.802
N31220 G01 X-1001.287 Y-1000.771
N31230 G01 X-1001.305 Y-1000.739
N31240 G01 X-1001.323 Y-1000.707
N31250 G01 X-1001.34 Y-1000.674
N31260 G01 X-1001.356 Y-1000.641
N31270 G01 X-1001.372 Y-1000.608
N31280 G01 X-1001.386 Y-1000.574
N31290 G01 X-1001.4 Y-1000.54
N31300 G01 X-1001.413 Y-1000.505
N31310 G01 X-1001.425 Y-1000.47
N31320 G01 X-1001.436 Y-1000.435
N31330 G01 X-1001.446 Y-1000.4
N31340 G01 X-1001.456 Y-1000.364
N31350 G01 X-1001.464 Y-1000.328
N31360 G01 X-1001.472 Y-1000.292
N31370 G01 X-1001.478 Y-1000.256
N31380 G01 X-1001.484 Y-1000.22
N31390 G01 X-1001.489 Y-1000.183
N31400 G01 X-1001.493 Y-1000.146
N31410 G01 X-1001.496 Y-1000.11
N31420 G01 X-1001.499 Y-1000.073
N31430 G01 X-1001.5 Y-1000.036
N31440 G01 X-1001.5 Y-1000
N31450 G01 Y1000
N31460 G01 Z-129.999 F500
N31470 G01 X-1001.5 Y1000.036 F1000
N31480 G01 X-1001.499 Y1000.073
N31490 G01 X-1001.496 Y1000.11
N31500 G01 X-1001.493 Y1000.147
N31510 G01 X-1001.489 Y1000.183
N31520 G01 X-1001.484 Y1000.22
N31530 G01 X-1001.478 Y1000.256
N31540 G01 X-1001.472 Y1000.292
N31550 G01 X-1001.464 Y1000.328
N31560 G01 X-1001.456 Y1000.364
N31570 G01 X-1001.446 Y1000.4
N31580 G01 X-1001.436 Y1000.435
N31590 G01 X-1001.425 Y1000.47
N31600 G01 X-1001.413 Y1000.505
N31610 G01 X-1001.4 Y1000.54
N31620 G01 X-1001.386 Y1000.574
N31630 G01 X-1001.372 Y1000.608
N31640 G01 X-1001.356 Y1000.641
N31650 G01 X-1001.34 Y1000.674
N31660 G01 X-1001.323 Y1000.707
N31670 G01 X-1001.305 Y1000.739
N31680 G01 X-1001.287 Y1000.771
N31690 G01 X-1001.268 Y1000.802
N31700 G01 X-1001.248 Y1000.833
N31710 G01 X-1001.227 Y1000.864
N31720 G01 X-1001.205 Y1000.894
N31730 G01 X-1001.183 Y1000.923
N31740 G01 X-1001.16 Y1000.952
N31750 G01 X-1001.136 Y1000.98
N31760 G01 X-1001.112 Y1001.008
N31770 G01 X-1001.087 Y1001.034
N31780 G01 X-1001.061 Y1001.061
N31790 G01 X-1001.034 Y1001.087
N31800 G01 X-1001.008 Y1001.112
N31810 G01 X-1000.98 Y1001.136
N31820 G01 X-1000.952 Y1001.16
N31830 G01 X-1000.923 Y1001.183
N31840 G01 X-1000.894 Y1001.205
N31850 G01 X-1000.864 Y1001.227
N31860 G01 X-1000.833 Y1001.248
N31870 G01 X-1000.802 Y1001.268
N31880 G01 X-1000.771 Y1001.287
N31890 G01 X-1000.739 Y1001.305
N31900 G01 X-1000.707 Y1001.323
N31910 G01 X-1000.674 Y1001.34
N31920 G01 X-1000.641 Y1001.356
N31930 G01 X-1000.608 Y1001.372
N31940 G01 X-1000.574 Y1001.386
N31950 G01 X-1000.54 Y1001.4
N31960 G01 X-1000.505 Y1001.413
N31970 G01 X-1000.47 Y1001.425
N31980 G01 X-1000.435 Y1001.436
N31990 G01 X-1000.4 Y1001.446
N32000 G01 X-1000.364 Y1001.456
N32010 G01 X-1000.328 Y1001.464
N32020 G01 X-1000.292 Y1001.472
N32030 G01 X-1000.256 Y1001.478
N32040 G01 X-1000.22 Y1001.484
N32050 G01 X-1000.183 Y1001.489
N32060 G01 X-1000.146 Y1001.493
N32070 G01 X-1000.11 Y1001.496
N32080 G01 X-1000.073 Y1001.499
N32090 G01 X-1000.036 Y1001.5
N32100 G01 X-1000 Y1001.5
N32110 G01 X1000
N32120 G01 X1000.036 Y1001.5
N32130 G01 X1000.073 Y1001.499
N32140 G01 X1000.11 Y1001.496
N32150 G01 X1000.147 Y1001.493
N32160 G01 X1000.183 Y1001.489
N32170 G01 X1000.22 Y1001.484
N32180 G01 X1000.256 Y1001.478
N32190 G01 X1000.292 Y1001.472
N32200 G01 X1000.328 Y1001.464
N32210 G01 X1000.364 Y1001.456
N32220 G01 X1000.4 Y1001.446
N32230 G01 X1000.435 Y1001.436
N32240 G01 X1000.47 Y1001.425
N32250 G01 X1000.505 Y1001.413
N32260 G01 X1000.54 Y1001.4
N32270 G01 X1000.574 Y1001.386
N32280 G01 X1000.608 Y1001.372
N32290 G01 X1000.641 Y1001.356
N32300 G01 X1000.674 Y1001.34
N32310 G01 X1000.707 Y1001.323
N32320 G01 X1000.739 Y1001.305
N32330 G01 X1000.771 Y1001.287
N32340 G01 X1000.802 Y1001.268
N32350 G01 X1000.833 Y1001.248
